; HEADER_BLOCK_START
; generated by OrcaSlicer 2.2.0 on 2025-05-19 at 21:19:29
; total layer number: 150
; filament_density: 1.24
; filament_diameter: 1.75
; max_z_height: 30.00
; HEADER_BLOCK_END

; THUMBNAIL_BLOCK_START

;
; THUMBNAIL_BLOCK_END

; THUMBNAIL_BLOCK_START

;
; THUMBNAIL_BLOCK_END

; external perimeters extrusion width = 0.40mm
; perimeters extrusion width = 0.44mm
; infill extrusion width = 0.44mm
; solid infill extrusion width = 0.48mm
; top infill extrusion width = 0.38mm
; first layer extrusion width = 0.48mm

; EXECUTABLE_BLOCK_START
M73 P0 R35
;TYPE:Custom
G1 X128 Y128
G90
G21
M83 ; use relative distances for extrusion
; filament start gcode
M106 S0
;LAYER_CHANGE
;Z:0.2
;HEIGHT:0.2
;BEFORE_LAYER_CHANGE
;0.2
G92 E0

G1 E-.8 F1800
;AFTER_LAYER_CHANGE
;0.2
;_SET_FAN_SPEED_CHANGING_LAYER
SET_VELOCITY_LIMIT ACCEL=500 ACCEL_TO_DECEL=250
G1 Z.6 F21000
G1 X149.392 Y73.523
G1 Z.6
G1 Z.2
G1 E.8 F1800
;TYPE:Inner wall
;WIDTH:0.479999
G1 F3000
G1 X144.235 Y78.68 E.25975
G1 X126.977 Y78.68 E.61466
G1 X121.82 Y73.523 E.25975
G1 X121.82 Y56.265 E.61466
G1 X126.977 Y51.108 E.25975
G1 X144.235 Y51.108 E.61466
G1 X149.392 Y56.265 E.25975
G1 X149.392 Y73.483 E.61323
G1 X149.829 Y73.704 F21000
G1 F3000
G1 X144.416 Y79.117 E.27265
G1 X126.796 Y79.117 E.62755
G1 X121.383 Y73.704 E.27265
G1 X121.383 Y56.084 E.62755
G1 X126.796 Y50.671 E.27265
G1 X144.416 Y50.671 E.62755
G1 X149.829 Y56.084 E.27265
G1 X149.829 Y73.664 E.62613
G1 X150.266 Y73.885 F21000
;TYPE:Outer wall
G1 F3000
G1 X144.597 Y79.554 E.28555
G1 X126.615 Y79.554 E.64045
G1 X120.946 Y73.885 E.28555
G1 X120.946 Y55.903 E.64045
G1 X126.615 Y50.234 E.28555
G1 X144.597 Y50.234 E.64045
G1 X150.266 Y55.903 E.28555
G1 X150.266 Y73.845 E.63903
G1 E-.56 F1800
;WIPE_START
G1 F3000
G1 X149.562 Y74.555 E-.24
;WIPE_END
G1 Z.6 F21000
G1 X137.744 Y56.298 Z.6
G1 Z.2
G1 E.8 F1800
;TYPE:Inner wall
G1 F3000
G1 X138.53 Y56.528 E.02917
G1 X139.378 Y56.874 E.03263
G1 X140.186 Y57.306 E.03263
G1 X141.281 Y58.088 E.04792
G1 X142.022 Y58.774 E.03597
G1 X142.832 Y59.766 E.0456
G1 X143.338 Y60.563 E.03362
G1 X143.744 Y61.384 E.03263
G1 X144.063 Y62.243 E.03263
G1 X144.291 Y63.13 E.03263
G1 X144.427 Y64.036 E.03263
G1 X144.468 Y64.951 E.03262
G1 X144.436 Y65.654 E.02505
G1 X144.313 Y66.547 E.03213
G1 X144.096 Y67.437 E.03263
G1 X143.788 Y68.3 E.03263
G1 X143.393 Y69.127 E.03263
G1 X142.914 Y69.908 E.03263
G1 X142.357 Y70.636 E.03263
G1 X141.729 Y71.302 E.03263
G1 X141.034 Y71.9 E.03263
G1 X140.282 Y72.423 E.03263
G1 X139.48 Y72.865 E.03263
G1 X138.574 Y73.249 E.03503
G1 X137.34 Y73.584 E.04554
G1 X136.406 Y73.721 E.03362
G1 X135.49 Y73.756 E.03263
G1 X134.576 Y73.697 E.03263
G1 X133.673 Y73.543 E.03263
G1 X132.79 Y73.298 E.03263
G1 X131.938 Y72.962 E.03263
G1 X131.124 Y72.54 E.03263
G1 X130.457 Y72.102 E.02842
G1 X129.65 Y71.457 E.03682
G1 X129.004 Y70.807 E.03263
G1 X128.429 Y70.094 E.03263
G1 X127.894 Y69.268 E.03503
G1 X127.349 Y68.111 E.04555
G1 X127.053 Y67.215 E.03362
G1 X126.859 Y66.319 E.03263
G1 X126.758 Y65.409 E.03263
G1 X126.752 Y64.492 E.03263
G1 X126.841 Y63.581 E.03263
G1 X127.024 Y62.683 E.03263
G1 X127.298 Y61.808 E.03263
G1 X127.688 Y60.905 E.03503
G1 X128.348 Y59.81 E.04555
G1 X128.929 Y59.066 E.03362
G1 X129.566 Y58.408 E.03263
G1 X130.268 Y57.819 E.03263
G1 X131.083 Y57.268 E.03503
G1 X132.23 Y56.702 E.04554
G1 X133.12 Y56.387 E.03362
G1 X134.011 Y56.176 E.03263
G1 X134.92 Y56.058 E.03263
G1 X135.836 Y56.034 E.03263
G1 X136.749 Y56.105 E.03263
G1 X137.65 Y56.27 E.03263
G1 X137.705 Y56.286 E.00204
G1 X137.621 Y56.715 F21000
G1 F3000
G1 X138.404 Y56.946 E.02909
G1 X139.21 Y57.278 E.03102
G1 X139.977 Y57.69 E.03102
G1 X141.024 Y58.442 E.04592
G1 X141.703 Y59.075 E.03306
G1 X142.494 Y60.042 E.04449
G1 X142.967 Y60.793 E.03161
G1 X143.351 Y61.575 E.03102
G1 X143.652 Y62.392 E.03102
G1 X143.867 Y63.236 E.03102
G1 X143.994 Y64.098 E.03102
G1 X144.032 Y64.968 E.03102
G1 X144 Y65.631 E.02365
G1 X143.88 Y66.485 E.03072
G1 X143.672 Y67.331 E.03102
G1 X143.377 Y68.151 E.03102
G1 X143 Y68.936 E.03102
G1 X142.543 Y69.677 E.03102
G1 X142.012 Y70.368 E.03102
G1 X141.413 Y71 E.03102
G1 X140.751 Y71.567 E.03102
G1 X140.035 Y72.062 E.03102
G1 X139.271 Y72.481 E.03102
G1 X138.43 Y72.835 E.03249
G1 X137.225 Y73.162 E.04446
G1 X136.347 Y73.288 E.03161
G1 X135.476 Y73.319 E.03102
G1 X134.607 Y73.261 E.03102
G1 X133.749 Y73.113 E.03102
G1 X132.91 Y72.877 E.03102
G1 X132.1 Y72.556 E.03102
G1 X131.328 Y72.153 E.03102
G1 X130.7 Y71.739 E.02682
G1 X129.928 Y71.12 E.03522
G1 X129.316 Y70.501 E.03102
G1 X128.771 Y69.821 E.03103
G1 X128.276 Y69.055 E.03249
G1 X127.745 Y67.925 E.04447
G1 X127.469 Y67.081 E.03161
G1 X127.286 Y66.23 E.03102
G1 X127.193 Y65.363 E.03103
G1 X127.19 Y64.492 E.03102
G1 X127.276 Y63.626 E.03103
G1 X127.451 Y62.772 E.03102
G1 X127.714 Y61.942 E.03102
G1 X128.077 Y61.105 E.03249
G1 X128.723 Y60.036 E.04446
G1 X129.271 Y59.338 E.03161
G1 X129.878 Y58.714 E.03102
G1 X130.547 Y58.156 E.03103
G1 X131.304 Y57.646 E.03249
G1 X132.423 Y57.093 E.04446
G1 X133.261 Y56.801 E.03161
G1 X134.109 Y56.602 E.03102
G1 X134.973 Y56.492 E.03102
G1 X135.844 Y56.471 E.03102
G1 X136.713 Y56.541 E.03102
G1 X137.569 Y56.7 E.03102
G1 X137.583 Y56.704 E.00051
G1 X137.496 Y57.132 F21000
;TYPE:Outer wall
G1 F3000
G1 X138.279 Y57.365 E.02909
G1 X139.042 Y57.681 E.02942
G1 X139.768 Y58.074 E.02942
G1 X140.768 Y58.796 E.04391
G1 X141.384 Y59.375 E.0301
G1 X142.155 Y60.319 E.04342
G1 X142.596 Y61.024 E.02961
G1 X142.958 Y61.766 E.02942
G1 X143.241 Y62.542 E.02942
G1 X143.443 Y63.343 E.02942
G1 X143.562 Y64.16 E.02941
G1 X143.595 Y64.985 E.02941
G1 X143.564 Y65.609 E.02224
G1 X143.448 Y66.423 E.02931
G1 X143.248 Y67.225 E.02942
G1 X142.967 Y68.001 E.02942
G1 X142.606 Y68.745 E.02942
G1 X142.172 Y69.447 E.02942
G1 X141.666 Y70.1 E.02942
G1 X141.097 Y70.698 E.02942
G1 X140.468 Y71.234 E.02942
G1 X139.788 Y71.702 E.02942
G1 X139.062 Y72.097 E.02942
G1 X138.287 Y72.421 E.02992
G1 X137.111 Y72.74 E.04342
G1 X136.288 Y72.855 E.02961
G1 X135.462 Y72.882 E.02942
G1 X134.638 Y72.825 E.02942
G1 X133.825 Y72.683 E.02942
G1 X133.03 Y72.457 E.02942
G1 X132.263 Y72.151 E.02942
G1 X131.532 Y71.767 E.02942
G1 X130.942 Y71.375 E.02521
G1 X130.207 Y70.783 E.03361
G1 X129.628 Y70.195 E.02942
G1 X129.113 Y69.549 E.02942
G1 X128.659 Y68.842 E.02992
G1 X128.141 Y67.739 E.04342
G1 X127.885 Y66.948 E.02961
G1 X127.714 Y66.14 E.02942
G1 X127.628 Y65.318 E.02942
G1 X127.627 Y64.492 E.02942
G1 X127.711 Y63.671 E.02942
G1 X127.879 Y62.862 E.02942
G1 X128.13 Y62.075 E.02942
G1 X128.467 Y61.306 E.02992
G1 X129.097 Y60.262 E.04342
G1 X129.613 Y59.611 E.02961
G1 X130.191 Y59.02 E.02942
G1 X130.826 Y58.492 E.02942
G1 X131.524 Y58.025 E.02992
G1 X132.617 Y57.485 E.04342
G1 X133.403 Y57.214 E.02961
G1 X134.207 Y57.028 E.02942
G1 X135.027 Y56.926 E.02942
G1 X135.853 Y56.908 E.02942
G1 X136.676 Y56.976 E.02942
G1 X137.457 Y57.124 E.02832
G1 E-.56 F1800
;WIPE_START
G1 F3000
G1 X138.279 Y57.365 E-.2056
G1 X138.412 Y57.42 E-.0344
;WIPE_END
G1 Z.6 F21000
G1 X149.261 Y56.598 Z.6
G1 Z.2
G1 E.8 F1800
;TYPE:Bottom surface
;WIDTH:0.480151
G1 F6300
G1 X144.099 Y51.436 E.26009
G1 X143.481 Y51.436 E.02203
G1 X149.064 Y57.02 E.28133
G1 X149.064 Y57.638 E.02203
G1 X142.863 Y51.436 E.31249
G1 X142.244 Y51.436 E.02203
G1 X149.064 Y58.256 E.34364
G1 X149.064 Y58.875 E.02203
G1 X141.626 Y51.436 E.3748
G1 X141.007 Y51.436 E.02203
G1 X149.064 Y59.493 E.40596
G1 X149.064 Y60.111 E.02203
G1 X140.389 Y51.436 E.43711
G1 X139.771 Y51.436 E.02203
G1 X149.064 Y60.73 E.46827
G1 X149.064 Y61.348 E.02203
G1 X139.152 Y51.436 E.49942
G1 X138.534 Y51.436 E.02203
G1 X149.064 Y61.966 E.53058
G1 X149.064 Y62.585 E.02203
G1 X137.916 Y51.436 E.56174
G1 X137.297 Y51.436 E.02203
G1 X149.064 Y63.203 E.59289
G1 X149.064 Y63.821 E.02203
G1 X136.679 Y51.436 E.62405
G1 X136.061 Y51.436 E.02203
G1 X149.064 Y64.44 E.6552
G1 X149.064 Y65.058 E.02203
G1 X135.442 Y51.436 E.68636
G1 X134.824 Y51.436 E.02203
G1 X140.522 Y57.134 E.28708
G1 X141.478 Y57.827 E.04209
G1 X142.231 Y58.522 E.03651
G1 X143.189 Y59.702 E.05415
G1 X143.345 Y59.957 E.01067
G1 X149.064 Y65.676 E.28816
G1 X149.064 Y66.295 E.02203
G1 X144.052 Y61.282 E.25256
G1 X144.41 Y62.259 E.03705
G1 X149.064 Y66.913 E.23452
G1 X149.064 Y67.531 E.02203
G1 X144.609 Y63.076 E.22447
G1 X144.72 Y63.806 E.02629
G1 X149.064 Y68.15 E.21887
G1 X149.064 Y68.768 E.02203
G1 X144.778 Y64.481 E.21599
G1 X144.79 Y65.112 E.02249
G1 X149.064 Y69.386 E.21535
G1 X149.064 Y70.005 E.02203
G1 X144.758 Y65.698 E.21701
G1 X144.684 Y66.243 E.0196
G1 X149.064 Y70.623 E.22069
G1 X149.064 Y71.241 E.02203
G1 X144.599 Y66.776 E.22498
G1 X144.472 Y67.268 E.01808
G1 X149.064 Y71.86 E.23138
G1 X149.064 Y72.478 E.02203
G1 X144.336 Y67.75 E.23823
G1 X144.169 Y68.201 E.01713
G1 X149.064 Y73.096 E.24668
G1 X149.064 Y73.387 E.01036
G1 X148.901 Y73.551 E.00825
G1 X143.992 Y68.642 E.24733
M73 P1 R35
G1 X143.787 Y69.056 E.01644
M73 P1 R35
G1 X148.591 Y73.86 E.24208
G1 X148.282 Y74.169 E.01558
G1 X143.576 Y69.463 E.23712
G1 X143.338 Y69.844 E.01599
G1 X147.973 Y74.478 E.23353
G1 X147.664 Y74.788 E.01558
G1 X143.094 Y70.218 E.23024
G1 X142.825 Y70.567 E.01571
G1 X147.355 Y75.097 E.22824
G1 X147.046 Y75.406 E.01558
G1 X142.549 Y70.909 E.22658
G1 X142.249 Y71.227 E.01558
G1 X146.736 Y75.715 E.22612
G1 X146.427 Y76.024 E.01558
G1 X141.949 Y71.546 E.22566
G1 X141.615 Y71.83 E.01563
G1 X146.118 Y76.333 E.2269
G1 X145.809 Y76.643 E.01558
G1 X141.28 Y72.114 E.22818
G1 X140.926 Y72.378 E.01574
G1 X145.5 Y76.952 E.23043
G1 X145.191 Y77.261 E.01558
G1 X140.56 Y72.63 E.23334
G1 X140.17 Y72.858 E.0161
G1 X144.881 Y77.57 E.2374
G1 X144.572 Y77.879 E.01558
G1 X139.772 Y73.079 E.24189
G1 X139.35 Y73.276 E.01657
G1 X144.263 Y78.188 E.24754
G1 X144.099 Y78.352 E.00825
G1 X143.808 Y78.352 E.01037
G1 X138.916 Y73.46 E.2465
G1 X138.756 Y73.528 E.0062
G1 X138.45 Y73.612 E.01131
G1 X143.19 Y78.352 E.23883
G1 X142.572 Y78.352 E.02203
G1 X137.965 Y73.746 E.2321
G1 X137.48 Y73.879 E.01792
G1 X141.953 Y78.352 E.22538
G1 X141.335 Y78.352 E.02203
G1 X136.958 Y73.976 E.22052
G1 X136.412 Y74.047 E.01964
G1 X140.717 Y78.352 E.2169
G1 X140.098 Y78.352 E.02203
G1 X135.817 Y74.071 E.21574
G1 X135.454 Y74.085 E.01295
G1 X135.195 Y74.067 E.00923
G1 X139.48 Y78.352 E.21591
G1 X138.862 Y78.352 E.02203
G1 X134.53 Y74.02 E.21826
G1 X133.786 Y73.895 E.02687
G1 X138.243 Y78.352 E.22458
G1 X137.625 Y78.352 E.02203
G1 X132.957 Y73.684 E.23521
G1 X132.696 Y73.612 E.00966
G1 X131.989 Y73.334 E.02706
G1 X137.203 Y78.549 E.26275
G1 E-.56 F1800
;WIPE_START
G1 F6300
G1 X136.496 Y77.842 E-.24
;WIPE_END
G1 Z.6 F21000
G1 X139.638 Y56.869 Z.6
G1 Z.2
G1 E.8 F1800
G1 F6300
G1 X134.206 Y51.436 E.27373
G1 X133.587 Y51.436 E.02203
G1 X138.258 Y56.107 E.23536
G1 X137.716 Y55.949 E.02012
G1 X137.43 Y55.897 E.01036
G1 X132.969 Y51.436 E.22478
G1 X132.351 Y51.436 E.02203
G1 X136.687 Y55.772 E.21846
G1 X136.017 Y55.72 E.02393
G1 X131.732 Y51.436 E.21588
G1 X131.114 Y51.436 E.02203
G1 X135.396 Y55.718 E.21576
G1 X134.802 Y55.742 E.02119
G1 X130.496 Y51.436 E.21698
G1 X129.877 Y51.436 E.02203
G1 X134.253 Y55.811 E.22045
G1 X134.011 Y55.842 E.00868
G1 X133.729 Y55.906 E.0103
G1 X129.259 Y51.436 E.22522
G1 X128.641 Y51.436 E.02203
G1 X133.225 Y56.021 E.23101
G1 X132.756 Y56.17 E.01755
G1 X128.022 Y51.436 E.2385
G1 X127.404 Y51.436 E.02203
G1 X132.292 Y56.324 E.2463
G1 X131.874 Y56.524 E.01653
G1 X126.949 Y51.6 E.24811
G1 X126.64 Y51.909 E.01558
G1 X131.46 Y56.728 E.24284
G1 X131.046 Y56.933 E.01645
G1 X126.331 Y52.218 E.23756
G1 X126.022 Y52.527 E.01558
G1 X130.656 Y57.161 E.2335
G1 X130.288 Y57.411 E.01586
G1 X125.713 Y52.837 E.23051
G1 X125.404 Y53.146 E.01558
G1 X129.932 Y57.674 E.22815
G1 X129.595 Y57.956 E.01564
G1 X125.094 Y53.455 E.22678
G1 X124.785 Y53.764 E.01558
G1 X129.267 Y58.246 E.22583
G1 X128.963 Y58.56 E.01558
G1 X124.476 Y54.073 E.2261
G1 X124.167 Y54.382 E.01558
G1 X128.661 Y58.877 E.22645
G1 X128.388 Y59.222 E.01568
G1 X123.858 Y54.692 E.22826
G1 X123.549 Y55.001 E.01558
G1 X128.116 Y59.568 E.23011
G1 X127.885 Y59.955 E.01607
G1 X123.239 Y55.31 E.23406
G1 X122.93 Y55.619 E.01558
G1 X127.654 Y60.342 E.238
G1 X127.423 Y60.73 E.01607
G1 X122.621 Y55.928 E.24194
G1 X122.312 Y56.237 E.01558
G1 X127.225 Y61.151 E.24756
G1 X127.039 Y61.583 E.01677
G1 X122.148 Y56.692 E.24644
G1 X122.148 Y57.31 E.02203
G1 X126.881 Y62.043 E.23847
G1 X126.734 Y62.514 E.01759
G1 X122.148 Y57.929 E.23106
G1 X122.148 Y58.547 E.02203
G1 X126.621 Y63.02 E.22537
G1 X126.517 Y63.534 E.0187
G1 X122.148 Y59.165 E.22014
G1 X122.148 Y59.784 E.02203
G1 X126.462 Y64.098 E.21736
G1 X126.425 Y64.488 E.01396
G1 X126.426 Y64.68 E.00685
G1 X122.148 Y60.402 E.21555
G1 X122.148 Y61.02 E.02203
G1 X126.431 Y65.303 E.21578
G1 X126.49 Y65.981 E.02424
G1 X122.148 Y61.639 E.21877
G1 X122.148 Y62.257 E.02203
G1 X126.607 Y66.716 E.22469
G1 X126.704 Y67.178 E.01681
G1 X126.819 Y67.546 E.01374
G1 X122.148 Y62.875 E.23534
G1 X122.148 Y63.494 E.02203
G1 X127.617 Y68.963 E.27556
G1 E-.56 F1800
;WIPE_START
G1 F6300
G1 X126.91 Y68.256 E-.24
;WIPE_END
G1 Z.6 F21000
G1 X121.952 Y63.915 Z.6
G1 Z.2
G1 E.8 F1800
G1 F6300
G1 X127.862 Y69.825 E.29779
G1 X128.109 Y70.212 E.01635
G1 X128.766 Y71.033 E.03746
G1 X129.437 Y71.706 E.03385
G1 X130.147 Y72.289 E.03276
G1 X130.666 Y72.63 E.02213
G1 X136.388 Y78.352 E.2883
G1 X135.77 Y78.352 E.02203
G1 X122.148 Y64.73 E.68635
G1 X122.148 Y65.349 E.02203
G1 X135.152 Y78.352 E.6552
G1 X134.533 Y78.352 E.02203
G1 X122.148 Y65.967 E.62404
G1 X122.148 Y66.585 E.02203
G1 X133.915 Y78.352 E.59289
G1 X133.297 Y78.352 E.02203
G1 X122.148 Y67.204 E.56173
G1 X122.148 Y67.822 E.02203
G1 X132.678 Y78.352 E.53057
G1 X132.06 Y78.352 E.02203
G1 X122.148 Y68.44 E.49942
G1 X122.148 Y69.059 E.02203
G1 X131.442 Y78.352 E.46826
G1 X130.823 Y78.352 E.02203
G1 X122.148 Y69.677 E.43711
G1 X122.148 Y70.295 E.02203
G1 X130.205 Y78.352 E.40595
M73 P2 R35
G1 X129.587 Y78.352 E.02203
M73 P2 R35
G1 X122.148 Y70.914 E.37479
G1 X122.148 Y71.532 E.02203
G1 X128.968 Y78.352 E.34364
G1 X128.35 Y78.352 E.02203
G1 X122.148 Y72.15 E.31248
G1 X122.148 Y72.769 E.02203
G1 X127.732 Y78.352 E.28133
G1 X127.113 Y78.352 E.02203
G1 X121.952 Y73.19 E.26008
M106 S255
;LAYER_CHANGE
;Z:0.4
;HEIGHT:0.2
;BEFORE_LAYER_CHANGE
;0.4
G92 E0

G1 E-.56 F1800
;WIPE_START
G1 F6300
G1 X122.659 Y73.898 E-.24
;WIPE_END
;AFTER_LAYER_CHANGE
;0.4
;_SET_FAN_SPEED_CHANGING_LAYER
SET_VELOCITY_LIMIT ACCEL=5000 ACCEL_TO_DECEL=2500
M140 S60 ; set bed temperature
SET_VELOCITY_LIMIT ACCEL=7000 ACCEL_TO_DECEL=3500
G1 Z.8 F21000
G1 X149.632 Y73.791 Z.8
G1 Z.4
G1 E.8 F1800
SET_VELOCITY_LIMIT ACCEL=5000 ACCEL_TO_DECEL=2500
;TYPE:Inner wall
;WIDTH:0.439999
G1 F9066.206
G1 X144.503 Y78.92 E.23472
G1 X126.71 Y78.92 E.57573
G1 X121.58 Y73.791 E.23472
G1 X121.58 Y55.998 E.57573
G1 X126.71 Y50.868 E.23472
G1 X144.503 Y50.868 E.57573
G1 X149.632 Y55.998 E.23472
G1 X149.632 Y73.751 E.57443
SET_VELOCITY_LIMIT ACCEL=7000 ACCEL_TO_DECEL=3500
G1 X150.029 Y73.955 F21000
SET_VELOCITY_LIMIT ACCEL=5000 ACCEL_TO_DECEL=2500
G1 F9066.206
G1 X144.667 Y79.317 E.24536
G1 X126.545 Y79.317 E.58637
G1 X121.183 Y73.955 E.24536
G1 X121.183 Y55.833 E.58637
G1 X126.545 Y50.471 E.24536
G1 X144.667 Y50.471 E.58637
G1 X150.029 Y55.833 E.24536
G1 X150.029 Y73.915 E.58508
SET_VELOCITY_LIMIT ACCEL=7000 ACCEL_TO_DECEL=3500
G1 X150.401 Y74.117 F21000
SET_VELOCITY_LIMIT ACCEL=3000 ACCEL_TO_DECEL=1500
;TYPE:Outer wall
;WIDTH:0.399999
G1 F2760
G1 X144.823 Y79.694 E.22951
G1 X126.389 Y79.694 E.53638
G1 X120.806 Y74.111 E.22974
G1 X120.806 Y56.496 E.51255
G1 X120.806 Y55.677 E.02383
G1 X126.389 Y50.094 E.22974
G1 X144.004 Y50.094 E.51255
G1 X144.823 Y50.094 E.02383
G1 X150.406 Y55.677 E.22974
M106 S255
G1 X150.406 Y74.079 E.53545
SET_VELOCITY_LIMIT ACCEL=7000 ACCEL_TO_DECEL=3500
G1 E-.56 F1800
;WIPE_START
G1 F2760
G1 X149.701 Y74.788 E-.24
;WIPE_END
G1 Z.8 F21000
G1 X137.664 Y56.534 Z.8
G1 Z.4
G1 E.8 F1800
SET_VELOCITY_LIMIT ACCEL=5000 ACCEL_TO_DECEL=2500
;TYPE:Inner wall
;WIDTH:0.439999
G1 F9066.206
G1 X138.096 Y56.638 E.01436
G1 X138.938 Y56.941 E.02896
G1 X139.745 Y57.329 E.02896
G1 X140.507 Y57.799 E.02896
G1 X141.216 Y58.345 E.02896
