; HEADER_BLOCK_START
; generated by OrcaSlicer 2.2.0 on 2025-06-01 at 10:40:11
; total layer number: 150
; filament_density: 1.24
; filament_diameter: 1.75
; max_z_height: 30.00
; HEADER_BLOCK_END

; THUMBNAIL_BLOCK_START

;
; THUMBNAIL_BLOCK_END

; THUMBNAIL_BLOCK_START

;
; THUMBNAIL_BLOCK_END

; external perimeters extrusion width = 0.40mm
; perimeters extrusion width = 0.44mm
; infill extrusion width = 0.44mm
; solid infill extrusion width = 0.48mm
; top infill extrusion width = 0.38mm
; first layer extrusion width = 0.48mm

; EXECUTABLE_BLOCK_START
EXCLUDE_OBJECT_DEFINE NAME=Voron_Design_Cube_v7_id_0_copy_0 CENTER=60.8835,188.854 POLYGON=[[45.8835,173.854],[75.8835,173.854],[75.8835,203.854],[45.8835,203.854],[45.8835,173.854]]
M73 P0 R35
;TYPE:Custom
M109 S0
M190 S0
START_PRINT EXTRUDER_TEMP=220 BED_TEMP=60
G90
G21
M83 ; use relative distances for extrusion
; filament start gcode
M106 S0
;LAYER_CHANGE
;Z:0.2
;HEIGHT:0.2
;BEFORE_LAYER_CHANGE
;0.2
G92 E0

G1 E-.8 F1800
;AFTER_LAYER_CHANGE
;0.2
;_SET_FAN_SPEED_CHANGING_LAYER
SET_VELOCITY_LIMIT ACCEL=500 ACCEL_TO_DECEL=250
; printing object Voron_Design_Cube_v7 id:0 copy 0
EXCLUDE_OBJECT_START NAME=Voron_Design_Cube_v7_id_0_copy_0
G1 Z.6 F21000
G1 X74.669 Y197.483
G1 Z.6
G1 Z.2
G1 E.8 F1800
;TYPE:Inner wall
;WIDTH:0.479999
G1 F3000
G1 X69.512 Y202.64 E.25975
G1 X52.255 Y202.64 E.61466
G1 X47.098 Y197.483 E.25975
G1 X47.098 Y180.225 E.61466
G1 X52.255 Y175.068 E.25975
G1 X69.512 Y175.068 E.61466
G1 X74.669 Y180.225 E.25975
G1 X74.669 Y197.443 E.61323
G1 X75.106 Y197.664 F21000
G1 F3000
G1 X69.693 Y203.077 E.27265
G1 X52.074 Y203.077 E.62755
G1 X46.661 Y197.664 E.27265
G1 X46.661 Y180.044 E.62755
G1 X52.074 Y174.631 E.27265
G1 X69.693 Y174.631 E.62755
G1 X75.106 Y180.044 E.27265
G1 X75.106 Y197.624 E.62613
G1 X75.544 Y197.845 F21000
;TYPE:Outer wall
G1 F3000
G1 X69.874 Y203.514 E.28555
G1 X51.893 Y203.514 E.64045
G1 X46.224 Y197.845 E.28555
G1 X46.224 Y179.863 E.64045
G1 X51.893 Y174.194 E.28555
G1 X69.874 Y174.194 E.64045
G1 X75.544 Y179.863 E.28555
G1 X75.544 Y197.805 E.63903
G1 E-.56 F1800
;WIPE_START
G1 F3000
G1 X74.839 Y198.514 E-.24
;WIPE_END
G1 Z.6 F21000
G1 X63.021 Y180.257 Z.6
G1 Z.2
G1 E.8 F1800
;TYPE:Inner wall
G1 F3000
G1 X63.807 Y180.487 E.02917
G1 X64.655 Y180.834 E.03263
G1 X65.463 Y181.266 E.03263
G1 X66.558 Y182.048 E.04792
G1 X67.299 Y182.734 E.03597
G1 X68.109 Y183.725 E.0456
G1 X68.615 Y184.522 E.03362
G1 X69.021 Y185.344 E.03263
G1 X69.34 Y186.203 E.03263
G1 X69.569 Y187.09 E.03263
G1 X69.704 Y187.996 E.03263
G1 X69.746 Y188.911 E.03262
G1 X69.714 Y189.614 E.02505
G1 X69.59 Y190.507 E.03213
G1 X69.373 Y191.397 E.03263
G1 X69.065 Y192.26 E.03263
G1 X68.67 Y193.087 E.03263
G1 X68.191 Y193.868 E.03263
G1 X67.635 Y194.596 E.03263
G1 X67.006 Y195.262 E.03263
G1 X66.312 Y195.86 E.03263
G1 X65.559 Y196.383 E.03263
G1 X64.757 Y196.825 E.03263
G1 X63.851 Y197.209 E.03503
G1 X62.617 Y197.544 E.04554
G1 X61.683 Y197.68 E.03362
G1 X60.768 Y197.716 E.03263
G1 X59.853 Y197.657 E.03263
G1 X58.95 Y197.503 E.03263
G1 X58.067 Y197.257 E.03263
G1 X57.215 Y196.922 E.03263
G1 X56.402 Y196.5 E.03263
G1 X55.734 Y196.062 E.02842
G1 X54.927 Y195.416 E.03682
G1 X54.281 Y194.766 E.03263
G1 X53.706 Y194.053 E.03263
G1 X53.171 Y193.228 E.03503
G1 X52.627 Y192.071 E.04555
G1 X52.33 Y191.175 E.03362
G1 X52.136 Y190.279 E.03263
G1 X52.036 Y189.368 E.03263
G1 X52.03 Y188.452 E.03263
G1 X52.119 Y187.54 E.03263
G1 X52.301 Y186.642 E.03263
G1 X52.575 Y185.768 E.03263
G1 X52.965 Y184.865 E.03503
G1 X53.626 Y183.77 E.04555
G1 X54.206 Y183.026 E.03362
G1 X54.844 Y182.368 E.03263
G1 X55.546 Y181.779 E.03263
G1 X56.36 Y181.228 E.03503
G1 X57.507 Y180.661 E.04554
G1 X58.397 Y180.347 E.03362
G1 X59.289 Y180.136 E.03263
G1 X60.197 Y180.018 E.03263
G1 X61.113 Y179.994 E.03263
G1 X62.026 Y180.065 E.03263
G1 X62.928 Y180.23 E.03263
G1 X62.983 Y180.246 E.00204
G1 X62.898 Y180.675 F21000
G1 F3000
G1 X63.682 Y180.906 E.02909
G1 X64.487 Y181.237 E.03102
G1 X65.254 Y181.65 E.03102
G1 X66.302 Y182.402 E.04592
G1 X66.981 Y183.035 E.03306
G1 X67.771 Y184.002 E.04449
G1 X68.244 Y184.753 E.03161
G1 X68.628 Y185.535 E.03102
G1 X68.929 Y186.352 E.03102
G1 X69.145 Y187.196 E.03102
G1 X69.272 Y188.058 E.03102
G1 X69.309 Y188.928 E.03102
G1 X69.277 Y189.591 E.02365
G1 X69.158 Y190.445 E.03072
G1 X68.949 Y191.291 E.03102
G1 X68.655 Y192.111 E.03102
G1 X68.277 Y192.895 E.03102
G1 X67.82 Y193.637 E.03102
G1 X67.289 Y194.328 E.03102
G1 X66.69 Y194.96 E.03102
G1 X66.028 Y195.527 E.03102
G1 X65.312 Y196.022 E.03102
G1 X64.548 Y196.441 E.03102
G1 X63.708 Y196.795 E.03249
G1 X62.503 Y197.122 E.04446
G1 X61.624 Y197.247 E.03161
G1 X60.754 Y197.279 E.03102
G1 X59.884 Y197.221 E.03102
G1 X59.026 Y197.073 E.03102
G1 X58.187 Y196.837 E.03102
G1 X57.378 Y196.516 E.03102
G1 X56.605 Y196.113 E.03102
G1 X55.977 Y195.698 E.02682
G1 X55.206 Y195.08 E.03522
G1 X54.593 Y194.46 E.03102
G1 X54.048 Y193.781 E.03103
G1 X53.554 Y193.014 E.03249
G1 X53.022 Y191.885 E.04447
G1 X52.746 Y191.041 E.03161
G1 X52.564 Y190.189 E.03102
G1 X52.47 Y189.323 E.03103
G1 X52.467 Y188.452 E.03102
G1 X52.553 Y187.585 E.03103
G1 X52.729 Y186.732 E.03102
G1 X52.991 Y185.902 E.03102
G1 X53.355 Y185.065 E.03249
G1 X54 Y183.996 E.04446
G1 X54.548 Y183.298 E.03161
G1 X55.156 Y182.674 E.03102
G1 X55.824 Y182.115 E.03103
G1 X56.581 Y181.606 E.03249
G1 X57.7 Y181.053 E.04446
G1 X58.539 Y180.761 E.03161
G1 X59.387 Y180.562 E.03102
G1 X60.251 Y180.452 E.03102
G1 X61.121 Y180.431 E.03102
G1 X61.99 Y180.501 E.03102
G1 X62.846 Y180.66 E.03102
G1 X62.86 Y180.664 E.00051
G1 X62.774 Y181.092 F21000
;TYPE:Outer wall
G1 F3000
G1 X63.556 Y181.325 E.02909
G1 X64.319 Y181.641 E.02942
G1 X65.046 Y182.034 E.02942
G1 X66.045 Y182.756 E.04391
G1 X66.661 Y183.335 E.0301
G1 X67.433 Y184.279 E.04342
G1 X67.873 Y184.984 E.02961
G1 X68.235 Y185.726 E.02942
G1 X68.519 Y186.502 E.02942
G1 X68.721 Y187.302 E.02942
G1 X68.839 Y188.12 E.02941
G1 X68.872 Y188.945 E.02941
G1 X68.841 Y189.568 E.02224
G1 X68.725 Y190.383 E.02931
G1 X68.525 Y191.185 E.02942
G1 X68.244 Y191.961 E.02942
G1 X67.884 Y192.704 E.02942
G1 X67.449 Y193.406 E.02942
G1 X66.944 Y194.06 E.02942
G1 X66.374 Y194.658 E.02942
G1 X65.745 Y195.194 E.02942
G1 X65.065 Y195.662 E.02942
G1 X64.34 Y196.057 E.02942
G1 X63.565 Y196.381 E.02992
G1 X62.388 Y196.7 E.04342
G1 X61.565 Y196.814 E.02961
G1 X60.739 Y196.842 E.02942
G1 X59.916 Y196.785 E.02942
G1 X59.102 Y196.642 E.02942
G1 X58.307 Y196.417 E.02942
G1 X57.54 Y196.11 E.02942
G1 X56.809 Y195.727 E.02942
G1 X56.22 Y195.335 E.02521
G1 X55.484 Y194.743 E.03361
G1 X54.905 Y194.154 E.02942
G1 X54.39 Y193.509 E.02942
G1 X53.937 Y192.802 E.02992
G1 X53.418 Y191.699 E.04342
G1 X53.162 Y190.908 E.02961
G1 X52.991 Y190.1 E.02942
G1 X52.905 Y189.278 E.02942
G1 X52.904 Y188.452 E.02942
G1 X52.988 Y187.631 E.02942
G1 X53.156 Y186.822 E.02942
G1 X53.408 Y186.035 E.02942
G1 X53.744 Y185.265 E.02992
G1 X54.374 Y184.222 E.04342
G1 X54.89 Y183.57 E.02961
G1 X55.468 Y182.98 E.02942
G1 X56.103 Y182.452 E.02942
G1 X56.801 Y181.985 E.02992
G1 X57.894 Y181.445 E.04342
G1 X58.68 Y181.174 E.02961
G1 X59.485 Y180.988 E.02942
G1 X60.304 Y180.885 E.02942
G1 X61.13 Y180.868 E.02942
G1 X61.953 Y180.936 E.02942
G1 X62.734 Y181.083 E.02832
G1 E-.56 F1800
;WIPE_START
G1 F3000
G1 X63.556 Y181.325 E-.2056
G1 X63.689 Y181.38 E-.0344
;WIPE_END
G1 Z.6 F21000
G1 X74.538 Y180.558 Z.6
G1 Z.2
G1 E.8 F1800
;TYPE:Bottom surface
;WIDTH:0.480151
G1 F6300
G1 X69.376 Y175.396 E.26009
G1 X68.758 Y175.396 E.02203
G1 X74.342 Y180.979 E.28133
G1 X74.342 Y181.598 E.02203
G1 X68.14 Y175.396 E.31249
G1 X67.521 Y175.396 E.02203
G1 X74.342 Y182.216 E.34364
G1 X74.342 Y182.834 E.02203
G1 X66.903 Y175.396 E.3748
G1 X66.285 Y175.396 E.02203
G1 X74.342 Y183.453 E.40596
G1 X74.342 Y184.071 E.02203
G1 X65.666 Y175.396 E.43711
G1 X65.048 Y175.396 E.02203
G1 X74.342 Y184.689 E.46827
G1 X74.342 Y185.308 E.02203
G1 X64.43 Y175.396 E.49942
G1 X63.811 Y175.396 E.02203
G1 X74.342 Y185.926 E.53058
G1 X74.342 Y186.544 E.02203
G1 X63.193 Y175.396 E.56174
G1 X62.575 Y175.396 E.02203
G1 X74.342 Y187.163 E.59289
G1 X74.342 Y187.781 E.02203
G1 X61.956 Y175.396 E.62405
G1 X61.338 Y175.396 E.02203
G1 X74.342 Y188.399 E.6552
G1 X74.342 Y189.018 E.02203
G1 X60.72 Y175.396 E.68636
G1 X60.101 Y175.396 E.02203
G1 X65.799 Y181.093 E.28708
G1 X66.756 Y181.787 E.04209
G1 X67.508 Y182.482 E.03651
G1 X68.467 Y183.662 E.05415
G1 X68.623 Y183.917 E.01067
G1 X74.342 Y189.636 E.28816
G1 X74.342 Y190.254 E.02203
G1 X69.329 Y185.242 E.25256
G1 X69.687 Y186.218 E.03705
G1 X74.342 Y190.873 E.23452
G1 X74.342 Y191.491 E.02203
G1 X69.887 Y187.036 E.22447
G1 X69.998 Y187.766 E.02629
G1 X74.342 Y192.109 E.21887
G1 X74.342 Y192.728 E.02203
G1 X70.055 Y188.441 E.21599
G1 X70.068 Y189.072 E.02249
G1 X74.342 Y193.346 E.21535
G1 X74.342 Y193.964 E.02203
G1 X70.035 Y189.658 E.21701
G1 X69.962 Y190.203 E.0196
G1 X74.342 Y194.583 E.22069
G1 X74.342 Y195.201 E.02203
G1 X69.877 Y190.736 E.22498
G1 X69.749 Y191.227 E.01808
G1 X74.342 Y195.819 E.23138
M73 P1 R35
G1 X74.342 Y196.438 E.02203
M73 P1 R35
G1 X69.614 Y191.71 E.23823
G1 X69.446 Y192.16 E.01713
G1 X74.342 Y197.056 E.24668
G1 X74.342 Y197.347 E.01036
G1 X74.178 Y197.511 E.00825
G1 X69.269 Y192.602 E.24733
G1 X69.064 Y193.015 E.01644
G1 X73.869 Y197.82 E.24208
G1 X73.559 Y198.129 E.01558
G1 X68.853 Y193.423 E.23712
G1 X68.616 Y193.803 E.01599
G1 X73.25 Y198.438 E.23353
G1 X72.941 Y198.747 E.01558
G1 X68.372 Y194.178 E.23024
G1 X68.102 Y194.527 E.01571
G1 X72.632 Y199.057 E.22824
G1 X72.323 Y199.366 E.01558
G1 X67.826 Y194.869 E.22658
G1 X67.526 Y195.187 E.01558
G1 X72.014 Y199.675 E.22612
G1 X71.704 Y199.984 E.01558
G1 X67.226 Y195.505 E.22566
G1 X66.892 Y195.79 E.01563
G1 X71.395 Y200.293 E.2269
G1 X71.086 Y200.602 E.01558
G1 X66.558 Y196.074 E.22818
G1 X66.204 Y196.338 E.01574
G1 X70.777 Y200.912 E.23043
G1 X70.468 Y201.221 E.01558
G1 X65.837 Y196.59 E.23334
G1 X65.447 Y196.818 E.0161
G1 X70.159 Y201.53 E.2374
G1 X69.849 Y201.839 E.01558
G1 X65.049 Y197.038 E.24189
G1 X64.627 Y197.235 E.01657
G1 X69.54 Y202.148 E.24754
G1 X69.377 Y202.312 E.00825
G1 X69.086 Y202.312 E.01037
G1 X64.193 Y197.42 E.2465
G1 X64.033 Y197.488 E.0062
G1 X63.727 Y197.572 E.01131
G1 X68.467 Y202.312 E.23883
G1 X67.849 Y202.312 E.02203
G1 X63.243 Y197.705 E.2321
G1 X62.758 Y197.839 E.01792
G1 X67.231 Y202.312 E.22538
G1 X66.612 Y202.312 E.02203
G1 X62.236 Y197.935 E.22052
G1 X61.689 Y198.007 E.01964
G1 X65.994 Y202.312 E.2169
G1 X65.376 Y202.312 E.02203
G1 X61.094 Y198.03 E.21574
G1 X60.731 Y198.044 E.01295
G1 X60.472 Y198.027 E.00923
G1 X64.757 Y202.312 E.21591
G1 X64.139 Y202.312 E.02203
G1 X59.807 Y197.98 E.21826
G1 X59.063 Y197.855 E.02687
G1 X63.521 Y202.312 E.22458
G1 X62.902 Y202.312 E.02203
G1 X58.234 Y197.644 E.23521
G1 X57.973 Y197.571 E.00966
G1 X57.266 Y197.294 E.02706
G1 X62.481 Y202.509 E.26275
G1 E-.56 F1800
;WIPE_START
G1 F6300
G1 X61.773 Y201.801 E-.24
;WIPE_END
G1 Z.6 F21000
G1 X64.916 Y180.828 Z.6
G1 Z.2
G1 E.8 F1800
G1 F6300
G1 X59.483 Y175.396 E.27373
G1 X58.865 Y175.396 E.02203
G1 X63.536 Y180.067 E.23536
G1 X62.994 Y179.909 E.02012
G1 X62.707 Y179.857 E.01036
G1 X58.246 Y175.396 E.22478
G1 X57.628 Y175.396 E.02203
G1 X61.964 Y179.732 E.21846
G1 X61.294 Y179.68 E.02393
G1 X57.01 Y175.396 E.21588
G1 X56.391 Y175.396 E.02203
G1 X60.674 Y179.678 E.21576
G1 X60.079 Y179.702 E.02119
G1 X55.773 Y175.396 E.21698
G1 X55.155 Y175.396 E.02203
G1 X59.53 Y179.771 E.22045
G1 X59.288 Y179.801 E.00868
G1 X59.006 Y179.866 E.0103
G1 X54.536 Y175.396 E.22522
G1 X53.918 Y175.396 E.02203
G1 X58.503 Y179.98 E.23101
G1 X58.033 Y180.129 E.01755
G1 X53.3 Y175.396 E.2385
G1 X52.681 Y175.396 E.02203
G1 X57.57 Y180.284 E.2463
G1 X57.151 Y180.484 E.01653
G1 X52.227 Y175.56 E.24811
G1 X51.918 Y175.869 E.01558
G1 X56.737 Y180.688 E.24284
G1 X56.323 Y180.893 E.01645
G1 X51.608 Y176.178 E.23756
G1 X51.299 Y176.487 E.01558
G1 X55.933 Y181.121 E.2335
G1 X55.565 Y181.371 E.01586
G1 X50.99 Y176.796 E.23051
G1 X50.681 Y177.105 E.01558
G1 X55.209 Y181.633 E.22815
G1 X54.873 Y181.915 E.01564
G1 X50.372 Y177.415 E.22678
G1 X50.063 Y177.724 E.01558
G1 X54.545 Y182.206 E.22583
G1 X54.241 Y182.52 E.01558
G1 X49.753 Y178.033 E.2261
G1 X49.444 Y178.342 E.01558
G1 X53.938 Y182.836 E.22645
G1 X53.665 Y183.181 E.01568
G1 X49.135 Y178.651 E.22826
G1 X48.826 Y178.96 E.01558
G1 X53.393 Y183.527 E.23011
G1 X53.162 Y183.915 E.01607
G1 X48.517 Y179.27 E.23406
G1 X48.208 Y179.579 E.01558
G1 X52.931 Y184.302 E.238
G1 X52.7 Y184.69 E.01607
G1 X47.898 Y179.888 E.24194
G1 X47.589 Y180.197 E.01558
G1 X52.502 Y185.11 E.24756
G1 X52.316 Y185.543 E.01677
G1 X47.426 Y180.652 E.24644
G1 X47.426 Y181.27 E.02203
G1 X52.158 Y186.003 E.23847
G1 X52.011 Y186.474 E.01759
G1 X47.426 Y181.888 E.23106
G1 X47.426 Y182.507 E.02203
G1 X51.898 Y186.98 E.22537
G1 X51.794 Y187.494 E.0187
G1 X47.426 Y183.125 E.22014
G1 X47.426 Y183.743 E.02203
G1 X51.739 Y188.057 E.21736
G1 X51.702 Y188.447 E.01396
G1 X51.703 Y188.64 E.00685
G1 X47.426 Y184.362 E.21555
G1 X47.426 Y184.98 E.02203
G1 X51.708 Y189.263 E.21578
G1 X51.767 Y189.94 E.02424
G1 X47.426 Y185.598 E.21877
G1 X47.426 Y186.217 E.02203
G1 X51.885 Y190.676 E.22469
G1 X51.981 Y191.138 E.01681
G1 X52.096 Y191.506 E.01374
G1 X47.426 Y186.835 E.23534
G1 X47.426 Y187.453 E.02203
G1 X52.894 Y192.922 E.27556
G1 E-.56 F1800
;WIPE_START
G1 F6300
G1 X52.187 Y192.215 E-.24
;WIPE_END
G1 Z.6 F21000
G1 X47.229 Y187.875 Z.6
G1 Z.2
G1 E.8 F1800
G1 F6300
G1 X53.139 Y193.785 E.29779
G1 X53.386 Y194.172 E.01635
G1 X54.044 Y194.992 E.03746
G1 X54.714 Y195.666 E.03385
G1 X55.425 Y196.249 E.03276
G1 X55.944 Y196.59 E.02213
G1 X61.666 Y202.312 E.2883
G1 X61.047 Y202.312 E.02203
G1 X47.426 Y188.69 E.68635
G1 X47.426 Y189.309 E.02203
G1 X60.429 Y202.312 E.6552
G1 X59.811 Y202.312 E.02203
G1 X47.426 Y189.927 E.62404
G1 X47.426 Y190.545 E.02203
G1 X59.192 Y202.312 E.59289
G1 X58.574 Y202.312 E.02203
G1 X47.426 Y191.164 E.56173
G1 X47.426 Y191.782 E.02203
G1 X57.956 Y202.312 E.53057
G1 X57.337 Y202.312 E.02203
G1 X47.426 Y192.4 E.49942
G1 X47.426 Y193.019 E.02203
G1 X56.719 Y202.312 E.46826
M73 P2 R35
G1 X56.101 Y202.312 E.02203
M73 P2 R35
G1 X47.426 Y193.637 E.43711
G1 X47.426 Y194.255 E.02203
G1 X55.482 Y202.312 E.40595
G1 X54.864 Y202.312 E.02203
G1 X47.426 Y194.874 E.37479
G1 X47.426 Y195.492 E.02203
G1 X54.246 Y202.312 E.34364
G1 X53.627 Y202.312 E.02203
G1 X47.426 Y196.11 E.31248
G1 X47.426 Y196.729 E.02203
G1 X53.009 Y202.312 E.28133
G1 X52.391 Y202.312 E.02203
G1 X47.229 Y197.15 E.26008
; stop printing object Voron_Design_Cube_v7 id:0 copy 0
M106 S255
;LAYER_CHANGE
;Z:0.4
;HEIGHT:0.2
;BEFORE_LAYER_CHANGE
;0.4
G92 E0

G1 E-.56 F1800
;WIPE_START
G1 F6300
G1 X47.936 Y197.857 E-.24
;WIPE_END
EXCLUDE_OBJECT_END NAME=Voron_Design_Cube_v7_id_0_copy_0
;AFTER_LAYER_CHANGE
;0.4
;_SET_FAN_SPEED_CHANGING_LAYER
SET_VELOCITY_LIMIT ACCEL=5000 ACCEL_TO_DECEL=2500
M140 S60 ; set bed temperature
; printing object Voron_Design_Cube_v7 id:0 copy 0
SET_VELOCITY_LIMIT ACCEL=7000 ACCEL_TO_DECEL=3500
EXCLUDE_OBJECT_START NAME=Voron_Design_Cube_v7_id_0_copy_0
G1 Z.8 F21000
G1 X74.909 Y197.75 Z.8
G1 Z.4
G1 E.8 F1800
SET_VELOCITY_LIMIT ACCEL=5000 ACCEL_TO_DECEL=2500
;TYPE:Inner wall
;WIDTH:0.439999
G1 F9066.206
G1 X69.78 Y202.88 E.23472
G1 X51.987 Y202.88 E.57573
G1 X46.858 Y197.75 E.23472
G1 X46.858 Y179.957 E.57573
G1 X51.987 Y174.828 E.23472
G1 X69.78 Y174.828 E.57573
G1 X74.909 Y179.957 E.23472
G1 X74.909 Y197.71 E.57443
SET_VELOCITY_LIMIT ACCEL=7000 ACCEL_TO_DECEL=3500
G1 X75.306 Y197.915 F21000
SET_VELOCITY_LIMIT ACCEL=5000 ACCEL_TO_DECEL=2500
G1 F9066.206
G1 X69.945 Y203.277 E.24536
G1 X51.823 Y203.277 E.58637
G1 X46.461 Y197.915 E.24536
G1 X46.461 Y179.793 E.58637
G1 X51.823 Y174.431 E.24536
G1 X69.945 Y174.431 E.58637
G1 X75.306 Y179.793 E.24536
G1 X75.306 Y197.875 E.58508
SET_VELOCITY_LIMIT ACCEL=7000 ACCEL_TO_DECEL=3500
G1 X75.678 Y198.076 F21000
SET_VELOCITY_LIMIT ACCEL=3000 ACCEL_TO_DECEL=1500
;TYPE:Outer wall
;WIDTH:0.399999
G1 F2760
G1 X70.101 Y203.654 E.22951
G1 X51.666 Y203.654 E.53641
G1 X46.084 Y198.071 E.22972
G1 X46.084 Y180.456 E.51255
