; HEADER_BLOCK_START
; generated by OrcaSlicer 2.2.0 on 2025-05-21 at 18:55:54
; total layer number: 150
; filament_density: 1.24
; filament_diameter: 1.75
; max_z_height: 30.00
; HEADER_BLOCK_END

; THUMBNAIL_BLOCK_START

;
; THUMBNAIL_BLOCK_END

; THUMBNAIL_BLOCK_START

;
; THUMBNAIL_BLOCK_END

; external perimeters extrusion width = 0.40mm
; perimeters extrusion width = 0.44mm
; infill extrusion width = 0.44mm
; solid infill extrusion width = 0.48mm
; top infill extrusion width = 0.38mm
; first layer extrusion width = 0.48mm

; EXECUTABLE_BLOCK_START
EXCLUDE_OBJECT_DEFINE NAME=Voron_Design_Cube_v7_id_0_copy_0 CENTER=84.9376,128 POLYGON=[[69.9376,113],[99.9376,113],[99.9376,143],[69.9376,143],[69.9376,113]]
M73 P0 R35
;TYPE:Custom
M109 S0
M190 S0
START_PRINT EXTRUDER_TEMP=220 BED_TEMP=60
G90
G21
M83 ; use relative distances for extrusion
; filament start gcode
M106 S0
;LAYER_CHANGE
;Z:0.2
;HEIGHT:0.2
;BEFORE_LAYER_CHANGE
;0.2
G92 E0

G1 E-.8 F1800
;AFTER_LAYER_CHANGE
;0.2
;_SET_FAN_SPEED_CHANGING_LAYER
SET_VELOCITY_LIMIT ACCEL=500 ACCEL_TO_DECEL=250
; printing object Voron_Design_Cube_v7 id:0 copy 0
EXCLUDE_OBJECT_START NAME=Voron_Design_Cube_v7_id_0_copy_0
G1 Z.6 F21000
G1 X98.723 Y136.629
G1 Z.6
G1 Z.2
G1 E.8 F1800
;TYPE:Inner wall
;WIDTH:0.479999
G1 F3000
G1 X93.566 Y141.786 E.25975
G1 X76.309 Y141.786 E.61466
G1 X71.152 Y136.629 E.25975
G1 X71.152 Y119.371 E.61466
G1 X76.309 Y114.214 E.25975
G1 X93.566 Y114.214 E.61466
G1 X98.723 Y119.371 E.25975
G1 X98.723 Y136.589 E.61323
G1 X99.161 Y136.81 F21000
G1 F3000
G1 X93.748 Y142.223 E.27265
G1 X76.128 Y142.223 E.62755
G1 X70.715 Y136.81 E.27265
G1 X70.715 Y119.19 E.62755
G1 X76.128 Y113.777 E.27265
G1 X93.748 Y113.777 E.62755
G1 X99.161 Y119.19 E.27265
G1 X99.161 Y136.77 E.62613
G1 X99.598 Y136.991 F21000
;TYPE:Outer wall
G1 F3000
G1 X93.929 Y142.66 E.28555
G1 X75.947 Y142.66 E.64045
G1 X70.278 Y136.991 E.28555
G1 X70.278 Y119.009 E.64045
G1 X75.947 Y113.34 E.28555
G1 X93.929 Y113.34 E.64045
G1 X99.598 Y119.009 E.28555
G1 X99.598 Y136.951 E.63903
G1 E-.56 F1800
;WIPE_START
G1 F3000
G1 X98.893 Y137.661 E-.24
;WIPE_END
G1 Z.6 F21000
G1 X87.075 Y119.404 Z.6
G1 Z.2
G1 E.8 F1800
;TYPE:Inner wall
G1 F3000
G1 X87.861 Y119.633 E.02917
G1 X88.709 Y119.98 E.03263
G1 X89.517 Y120.412 E.03263
G1 X90.612 Y121.194 E.04792
G1 X91.353 Y121.88 E.03597
G1 X92.163 Y122.871 E.0456
G1 X92.669 Y123.668 E.03362
G1 X93.075 Y124.49 E.03263
G1 X93.394 Y125.349 E.03263
G1 X93.623 Y126.236 E.03263
G1 X93.758 Y127.142 E.03263
G1 X93.8 Y128.057 E.03262
G1 X93.768 Y128.76 E.02505
G1 X93.644 Y129.653 E.03213
G1 X93.427 Y130.543 E.03263
G1 X93.119 Y131.406 E.03263
G1 X92.724 Y132.233 E.03263
G1 X92.245 Y133.014 E.03263
G1 X91.689 Y133.742 E.03263
G1 X91.06 Y134.408 E.03263
G1 X90.366 Y135.006 E.03263
G1 X89.613 Y135.529 E.03263
G1 X88.811 Y135.971 E.03263
G1 X87.905 Y136.355 E.03503
G1 X86.671 Y136.69 E.04554
G1 X85.737 Y136.827 E.03362
G1 X84.822 Y136.862 E.03263
G1 X83.907 Y136.803 E.03263
G1 X83.004 Y136.649 E.03263
G1 X82.122 Y136.404 E.03263
G1 X81.269 Y136.068 E.03263
G1 X80.456 Y135.646 E.03263
G1 X79.789 Y135.208 E.02842
G1 X78.981 Y134.563 E.03682
G1 X78.335 Y133.913 E.03263
G1 X77.76 Y133.199 E.03263
G1 X77.225 Y132.374 E.03503
G1 X76.681 Y131.217 E.04555
G1 X76.384 Y130.321 E.03362
G1 X76.19 Y129.425 E.03263
G1 X76.09 Y128.515 E.03263
G1 X76.084 Y127.598 E.03263
G1 X76.173 Y126.686 E.03263
G1 X76.355 Y125.789 E.03263
G1 X76.629 Y124.914 E.03263
G1 X77.019 Y124.011 E.03503
G1 X77.68 Y122.916 E.04555
G1 X78.26 Y122.172 E.03362
G1 X78.898 Y121.514 E.03263
G1 X79.6 Y120.925 E.03263
G1 X80.414 Y120.374 E.03503
G1 X81.561 Y119.807 E.04554
G1 X82.451 Y119.493 E.03362
G1 X83.343 Y119.282 E.03263
G1 X84.251 Y119.164 E.03263
G1 X85.167 Y119.14 E.03263
G1 X86.081 Y119.211 E.03263
G1 X86.982 Y119.376 E.03263
G1 X87.037 Y119.392 E.00204
G1 X86.952 Y119.821 F21000
G1 F3000
G1 X87.736 Y120.052 E.02909
G1 X88.541 Y120.383 E.03102
G1 X89.308 Y120.796 E.03102
G1 X90.356 Y121.548 E.04592
G1 X91.035 Y122.181 E.03306
G1 X91.825 Y123.148 E.04449
G1 X92.298 Y123.899 E.03161
G1 X92.682 Y124.681 E.03102
G1 X92.983 Y125.498 E.03102
G1 X93.199 Y126.342 E.03102
G1 X93.326 Y127.204 E.03102
G1 X93.363 Y128.074 E.03102
G1 X93.331 Y128.737 E.02365
G1 X93.212 Y129.591 E.03072
G1 X93.003 Y130.437 E.03102
G1 X92.709 Y131.257 E.03102
G1 X92.331 Y132.042 E.03102
G1 X91.874 Y132.783 E.03102
G1 X91.343 Y133.474 E.03102
G1 X90.744 Y134.106 E.03102
G1 X90.083 Y134.673 E.03102
G1 X89.366 Y135.168 E.03102
G1 X88.602 Y135.587 E.03102
G1 X87.762 Y135.941 E.03249
G1 X86.557 Y136.268 E.04446
G1 X85.678 Y136.394 E.03161
G1 X84.808 Y136.425 E.03102
G1 X83.939 Y136.367 E.03102
G1 X83.08 Y136.219 E.03102
G1 X82.242 Y135.983 E.03102
G1 X81.432 Y135.662 E.03102
G1 X80.659 Y135.259 E.03102
G1 X80.031 Y134.844 E.02682
G1 X79.26 Y134.226 E.03522
G1 X78.647 Y133.607 E.03102
G1 X78.102 Y132.927 E.03103
G1 X77.608 Y132.161 E.03249
G1 X77.076 Y131.031 E.04447
G1 X76.8 Y130.187 E.03161
G1 X76.618 Y129.335 E.03102
G1 X76.524 Y128.469 E.03103
G1 X76.521 Y127.598 E.03102
G1 X76.607 Y126.732 E.03103
G1 X76.783 Y125.878 E.03102
G1 X77.045 Y125.048 E.03102
G1 X77.409 Y124.211 E.03249
G1 X78.054 Y123.142 E.04446
G1 X78.602 Y122.444 E.03161
G1 X79.21 Y121.82 E.03102
G1 X79.878 Y121.262 E.03103
G1 X80.635 Y120.752 E.03249
G1 X81.755 Y120.199 E.04446
G1 X82.593 Y119.907 E.03161
G1 X83.441 Y119.708 E.03102
G1 X84.305 Y119.598 E.03102
G1 X85.176 Y119.577 E.03102
G1 X86.044 Y119.647 E.03102
G1 X86.9 Y119.806 E.03102
G1 X86.914 Y119.81 E.00051
G1 X86.828 Y120.238 F21000
;TYPE:Outer wall
G1 F3000
G1 X87.61 Y120.471 E.02909
G1 X88.373 Y120.787 E.02942
G1 X89.1 Y121.18 E.02942
G1 X90.099 Y121.902 E.04391
G1 X90.715 Y122.481 E.0301
G1 X91.487 Y123.425 E.04342
G1 X91.927 Y124.13 E.02961
G1 X92.289 Y124.872 E.02942
G1 X92.573 Y125.648 E.02942
G1 X92.775 Y126.448 E.02942
G1 X92.893 Y127.266 E.02941
G1 X92.926 Y128.091 E.02941
G1 X92.895 Y128.715 E.02224
G1 X92.779 Y129.529 E.02931
G1 X92.579 Y130.331 E.02942
G1 X92.298 Y131.107 E.02942
G1 X91.938 Y131.85 E.02942
G1 X91.503 Y132.553 E.02942
G1 X90.998 Y133.206 E.02942
G1 X90.428 Y133.804 E.02942
G1 X89.799 Y134.34 E.02942
G1 X89.119 Y134.808 E.02942
G1 X88.394 Y135.203 E.02942
G1 X87.619 Y135.527 E.02992
G1 X86.442 Y135.846 E.04342
G1 X85.619 Y135.96 E.02961
G1 X84.794 Y135.988 E.02942
G1 X83.97 Y135.931 E.02942
G1 X83.156 Y135.788 E.02942
G1 X82.361 Y135.563 E.02942
G1 X81.594 Y135.257 E.02942
G1 X80.863 Y134.873 E.02942
G1 X80.274 Y134.481 E.02521
G1 X79.538 Y133.889 E.03361
G1 X78.959 Y133.301 E.02942
G1 X78.444 Y132.655 E.02942
G1 X77.991 Y131.948 E.02992
G1 X77.472 Y130.845 E.04342
G1 X77.216 Y130.054 E.02961
G1 X77.046 Y129.246 E.02942
G1 X76.959 Y128.424 E.02942
G1 X76.958 Y127.598 E.02942
G1 X77.042 Y126.777 E.02942
G1 X77.211 Y125.968 E.02942
G1 X77.462 Y125.181 E.02942
G1 X77.798 Y124.412 E.02992
G1 X78.428 Y123.368 E.04342
G1 X78.944 Y122.716 E.02961
G1 X79.522 Y122.126 E.02942
G1 X80.157 Y121.598 E.02942
G1 X80.855 Y121.131 E.02992
G1 X81.948 Y120.591 E.04342
G1 X82.734 Y120.32 E.02961
G1 X83.539 Y120.134 E.02942
G1 X84.358 Y120.031 E.02942
G1 X85.184 Y120.014 E.02942
G1 X86.007 Y120.082 E.02942
G1 X86.788 Y120.229 E.02832
G1 E-.56 F1800
;WIPE_START
G1 F3000
G1 X87.61 Y120.471 E-.2056
G1 X87.743 Y120.526 E-.0344
;WIPE_END
G1 Z.6 F21000
G1 X98.592 Y119.704 Z.6
G1 Z.2
G1 E.8 F1800
;TYPE:Bottom surface
;WIDTH:0.480151
G1 F6300
G1 X93.431 Y114.542 E.26009
G1 X92.812 Y114.542 E.02203
G1 X98.396 Y120.125 E.28133
G1 X98.396 Y120.744 E.02203
G1 X92.194 Y114.542 E.31249
G1 X91.575 Y114.542 E.02203
G1 X98.396 Y121.362 E.34364
G1 X98.396 Y121.98 E.02203
G1 X90.957 Y114.542 E.3748
G1 X90.339 Y114.542 E.02203
G1 X98.396 Y122.599 E.40596
G1 X98.396 Y123.217 E.02203
G1 X89.72 Y114.542 E.43711
G1 X89.102 Y114.542 E.02203
G1 X98.396 Y123.835 E.46827
G1 X98.396 Y124.454 E.02203
G1 X88.484 Y114.542 E.49942
G1 X87.865 Y114.542 E.02203
G1 X98.396 Y125.072 E.53058
G1 X98.396 Y125.69 E.02203
G1 X87.247 Y114.542 E.56174
G1 X86.629 Y114.542 E.02203
G1 X98.396 Y126.309 E.59289
G1 X98.396 Y126.927 E.02203
G1 X86.01 Y114.542 E.62405
G1 X85.392 Y114.542 E.02203
G1 X98.396 Y127.545 E.6552
G1 X98.396 Y128.164 E.02203
G1 X84.774 Y114.542 E.68636
G1 X84.155 Y114.542 E.02203
G1 X89.853 Y120.24 E.28708
G1 X90.81 Y120.933 E.04209
G1 X91.562 Y121.628 E.03651
G1 X92.521 Y122.808 E.05415
G1 X92.677 Y123.063 E.01067
G1 X98.396 Y128.782 E.28816
G1 X98.396 Y129.401 E.02203
G1 X93.383 Y124.388 E.25256
G1 X93.741 Y125.364 E.03705
G1 X98.396 Y130.019 E.23452
G1 X98.396 Y130.637 E.02203
G1 X93.941 Y126.182 E.22447
G1 X94.052 Y126.912 E.02629
G1 X98.396 Y131.256 E.21887
G1 X98.396 Y131.874 E.02203
G1 X94.109 Y127.587 E.21599
G1 X94.122 Y128.218 E.02249
G1 X98.396 Y132.492 E.21535
G1 X98.396 Y133.111 E.02203
G1 X94.089 Y128.804 E.21701
G1 X94.016 Y129.349 E.0196
G1 X98.396 Y133.729 E.22069
G1 X98.396 Y134.347 E.02203
G1 X93.931 Y129.882 E.22498
G1 X93.804 Y130.373 E.01808
G1 X98.396 Y134.966 E.23138
G1 X98.396 Y135.584 E.02203
G1 X93.668 Y130.856 E.23823
M73 P1 R35
G1 X93.5 Y131.306 E.01713
M73 P1 R35
G1 X98.396 Y136.202 E.24668
G1 X98.396 Y136.493 E.01036
G1 X98.232 Y136.657 E.00825
G1 X93.323 Y131.748 E.24733
G1 X93.118 Y132.162 E.01644
G1 X97.923 Y136.966 E.24208
G1 X97.614 Y137.275 E.01558
G1 X92.907 Y132.569 E.23712
G1 X92.67 Y132.95 E.01599
G1 X97.304 Y137.584 E.23353
G1 X96.995 Y137.893 E.01558
G1 X92.426 Y133.324 E.23024
G1 X92.156 Y133.673 E.01571
G1 X96.686 Y138.203 E.22824
G1 X96.377 Y138.512 E.01558
G1 X91.88 Y134.015 E.22658
G1 X91.58 Y134.333 E.01558
G1 X96.068 Y138.821 E.22612
G1 X95.759 Y139.13 E.01558
G1 X91.28 Y134.652 E.22566
G1 X90.946 Y134.936 E.01563
G1 X95.449 Y139.439 E.2269
G1 X95.14 Y139.749 E.01558
G1 X90.612 Y135.22 E.22818
G1 X90.258 Y135.484 E.01574
G1 X94.831 Y140.058 E.23043
G1 X94.522 Y140.367 E.01558
G1 X89.891 Y135.736 E.23334
G1 X89.501 Y135.964 E.0161
G1 X94.213 Y140.676 E.2374
G1 X93.904 Y140.985 E.01558
G1 X89.103 Y136.185 E.24189
G1 X88.681 Y136.381 E.01657
G1 X93.594 Y141.294 E.24754
G1 X93.431 Y141.458 E.00825
G1 X93.14 Y141.458 E.01037
G1 X88.248 Y136.566 E.2465
G1 X88.087 Y136.634 E.0062
G1 X87.781 Y136.718 E.01131
G1 X92.521 Y141.458 E.23883
G1 X91.903 Y141.458 E.02203
G1 X87.297 Y136.852 E.2321
G1 X86.812 Y136.985 E.01792
G1 X91.285 Y141.458 E.22538
G1 X90.666 Y141.458 E.02203
G1 X86.29 Y137.081 E.22052
G1 X85.743 Y137.153 E.01964
G1 X90.048 Y141.458 E.2169
G1 X89.43 Y141.458 E.02203
G1 X85.148 Y137.176 E.21574
G1 X84.785 Y137.191 E.01295
G1 X84.526 Y137.173 E.00923
G1 X88.811 Y141.458 E.21591
G1 X88.193 Y141.458 E.02203
G1 X83.861 Y137.126 E.21826
G1 X83.117 Y137.001 E.02687
G1 X87.575 Y141.458 E.22458
G1 X86.956 Y141.458 E.02203
G1 X82.288 Y136.79 E.23521
G1 X82.027 Y136.717 E.00966
G1 X81.32 Y136.44 E.02706
G1 X86.535 Y141.655 E.26275
G1 E-.56 F1800
;WIPE_START
G1 F6300
G1 X85.828 Y140.948 E-.24
;WIPE_END
G1 Z.6 F21000
G1 X88.97 Y119.975 Z.6
G1 Z.2
G1 E.8 F1800
G1 F6300
G1 X83.537 Y114.542 E.27373
G1 X82.919 Y114.542 E.02203
G1 X87.59 Y119.213 E.23536
G1 X87.048 Y119.055 E.02012
G1 X86.761 Y119.003 E.01036
G1 X82.3 Y114.542 E.22478
G1 X81.682 Y114.542 E.02203
G1 X86.018 Y118.878 E.21846
G1 X85.348 Y118.826 E.02393
G1 X81.064 Y114.542 E.21588
G1 X80.445 Y114.542 E.02203
G1 X84.728 Y118.824 E.21576
G1 X84.133 Y118.848 E.02119
G1 X79.827 Y114.542 E.21698
G1 X79.209 Y114.542 E.02203
G1 X83.584 Y118.917 E.22045
G1 X83.342 Y118.948 E.00868
G1 X83.06 Y119.012 E.0103
G1 X78.59 Y114.542 E.22522
G1 X77.972 Y114.542 E.02203
G1 X82.557 Y119.127 E.23101
G1 X82.087 Y119.275 E.01755
G1 X77.354 Y114.542 E.2385
G1 X76.735 Y114.542 E.02203
G1 X81.624 Y119.43 E.2463
G1 X81.205 Y119.63 E.01653
G1 X76.281 Y114.706 E.24811
G1 X75.972 Y115.015 E.01558
G1 X80.791 Y119.834 E.24284
G1 X80.377 Y120.039 E.01645
G1 X75.662 Y115.324 E.23756
G1 X75.353 Y115.633 E.01558
G1 X79.987 Y120.267 E.2335
G1 X79.619 Y120.517 E.01586
G1 X75.044 Y115.942 E.23051
G1 X74.735 Y116.252 E.01558
G1 X79.263 Y120.78 E.22815
G1 X78.927 Y121.062 E.01564
G1 X74.426 Y116.561 E.22678
G1 X74.117 Y116.87 E.01558
G1 X78.599 Y121.352 E.22583
G1 X78.295 Y121.666 E.01558
G1 X73.807 Y117.179 E.2261
G1 X73.498 Y117.488 E.01558
G1 X77.992 Y121.982 E.22645
G1 X77.719 Y122.328 E.01568
G1 X73.189 Y117.797 E.22826
G1 X72.88 Y118.107 E.01558
G1 X77.447 Y122.674 E.23011
G1 X77.216 Y123.061 E.01607
G1 X72.571 Y118.416 E.23406
G1 X72.262 Y118.725 E.01558
G1 X76.985 Y123.448 E.238
G1 X76.754 Y123.836 E.01607
G1 X71.952 Y119.034 E.24194
G1 X71.643 Y119.343 E.01558
G1 X76.556 Y124.256 E.24756
G1 X76.37 Y124.689 E.01677
G1 X71.48 Y119.798 E.24644
G1 X71.48 Y120.416 E.02203
G1 X76.212 Y125.149 E.23847
G1 X76.065 Y125.62 E.01759
G1 X71.48 Y121.035 E.23106
G1 X71.48 Y121.653 E.02203
G1 X75.952 Y126.126 E.22537
G1 X75.849 Y126.64 E.0187
G1 X71.48 Y122.271 E.22014
G1 X71.48 Y122.89 E.02203
G1 X75.793 Y127.204 E.21736
G1 X75.756 Y127.593 E.01396
G1 X75.757 Y127.786 E.00685
G1 X71.48 Y123.508 E.21555
G1 X71.48 Y124.126 E.02203
G1 X75.762 Y128.409 E.21578
G1 X75.821 Y129.086 E.02424
G1 X71.48 Y124.745 E.21877
G1 X71.48 Y125.363 E.02203
G1 X75.939 Y129.822 E.22469
G1 X76.035 Y130.284 E.01681
G1 X76.15 Y130.652 E.01374
G1 X71.48 Y125.981 E.23534
G1 X71.48 Y126.6 E.02203
G1 X76.949 Y132.069 E.27556
G1 E-.56 F1800
;WIPE_START
G1 F6300
G1 X76.241 Y131.361 E-.24
;WIPE_END
G1 Z.6 F21000
G1 X71.283 Y127.021 Z.6
G1 Z.2
G1 E.8 F1800
G1 F6300
G1 X77.193 Y132.931 E.29779
G1 X77.44 Y133.318 E.01635
G1 X78.098 Y134.139 E.03746
G1 X78.768 Y134.812 E.03385
G1 X79.479 Y135.395 E.03276
G1 X79.998 Y135.736 E.02213
G1 X85.72 Y141.458 E.2883
G1 X85.101 Y141.458 E.02203
G1 X71.48 Y127.836 E.68635
G1 X71.48 Y128.455 E.02203
G1 X84.483 Y141.458 E.6552
G1 X83.865 Y141.458 E.02203
G1 X71.48 Y129.073 E.62404
G1 X71.48 Y129.691 E.02203
G1 X83.246 Y141.458 E.59289
G1 X82.628 Y141.458 E.02203
G1 X71.48 Y130.31 E.56173
G1 X71.48 Y130.928 E.02203
G1 X82.01 Y141.458 E.53057
G1 X81.391 Y141.458 E.02203
G1 X71.48 Y131.546 E.49942
G1 X71.48 Y132.165 E.02203
G1 X80.773 Y141.458 E.46826
G1 X80.155 Y141.458 E.02203
M73 P2 R35
G1 X71.48 Y132.783 E.43711
M73 P2 R35
G1 X71.48 Y133.401 E.02203
G1 X79.536 Y141.458 E.40595
G1 X78.918 Y141.458 E.02203
G1 X71.48 Y134.02 E.37479
G1 X71.48 Y134.638 E.02203
G1 X78.3 Y141.458 E.34364
G1 X77.681 Y141.458 E.02203
G1 X71.48 Y135.256 E.31248
G1 X71.48 Y135.875 E.02203
G1 X77.063 Y141.458 E.28133
G1 X76.445 Y141.458 E.02203
G1 X71.283 Y136.296 E.26008
; stop printing object Voron_Design_Cube_v7 id:0 copy 0
M106 S255
;LAYER_CHANGE
;Z:0.4
;HEIGHT:0.2
;BEFORE_LAYER_CHANGE
;0.4
G92 E0

G1 E-.56 F1800
;WIPE_START
G1 F6300
G1 X71.99 Y137.003 E-.24
;WIPE_END
EXCLUDE_OBJECT_END NAME=Voron_Design_Cube_v7_id_0_copy_0
;AFTER_LAYER_CHANGE
;0.4
;_SET_FAN_SPEED_CHANGING_LAYER
SET_VELOCITY_LIMIT ACCEL=5000 ACCEL_TO_DECEL=2500
M140 S60 ; set bed temperature
; printing object Voron_Design_Cube_v7 id:0 copy 0
SET_VELOCITY_LIMIT ACCEL=7000 ACCEL_TO_DECEL=3500
EXCLUDE_OBJECT_START NAME=Voron_Design_Cube_v7_id_0_copy_0
G1 Z.8 F21000
G1 X98.963 Y136.896 Z.8
G1 Z.4
G1 E.8 F1800
SET_VELOCITY_LIMIT ACCEL=5000 ACCEL_TO_DECEL=2500
;TYPE:Inner wall
;WIDTH:0.439999
G1 F9066.206
G1 X93.834 Y142.026 E.23472
G1 X76.041 Y142.026 E.57573
G1 X70.912 Y136.896 E.23472
G1 X70.912 Y119.104 E.57573
G1 X76.041 Y113.974 E.23472
G1 X93.834 Y113.974 E.57573
G1 X98.963 Y119.104 E.23472
G1 X98.963 Y136.856 E.57443
SET_VELOCITY_LIMIT ACCEL=7000 ACCEL_TO_DECEL=3500
G1 X99.361 Y137.061 F21000
SET_VELOCITY_LIMIT ACCEL=5000 ACCEL_TO_DECEL=2500
G1 F9066.206
G1 X93.999 Y142.423 E.24536
G1 X75.877 Y142.423 E.58637
G1 X70.515 Y137.061 E.24536
G1 X70.515 Y118.939 E.58637
G1 X75.877 Y113.577 E.24536
G1 X93.999 Y113.577 E.58637
G1 X99.361 Y118.939 E.24536
G1 X99.361 Y137.021 E.58508
SET_VELOCITY_LIMIT ACCEL=7000 ACCEL_TO_DECEL=3500
G1 X99.732 Y137.222 F21000
SET_VELOCITY_LIMIT ACCEL=3000 ACCEL_TO_DECEL=1500
;TYPE:Outer wall
;WIDTH:0.399999
G1 F2760
G1 X94.155 Y142.8 E.22951
G1 X75.72 Y142.8 E.53641
G1 X70.138 Y137.217 E.22972
G1 X70.138 Y119.602 E.51255
G1 X70.138 Y118.783 E.02383
G1 X75.72 Y113.2 E.22972
