; HEADER_BLOCK_START
; generated by OrcaSlicer 2.2.0 on 2025-05-20 at 21:47:27
; total layer number: 150
; filament_density: 1.24
; filament_diameter: 1.75
; max_z_height: 30.00
; HEADER_BLOCK_END

; THUMBNAIL_BLOCK_START

;
; THUMBNAIL_BLOCK_END

; THUMBNAIL_BLOCK_START

;
; THUMBNAIL_BLOCK_END

; external perimeters extrusion width = 0.40mm
; perimeters extrusion width = 0.44mm
; infill extrusion width = 0.44mm
; solid infill extrusion width = 0.48mm
; top infill extrusion width = 0.38mm
; first layer extrusion width = 0.48mm

; EXECUTABLE_BLOCK_START
EXCLUDE_OBJECT_DEFINE NAME=Voron_Design_Cube_v7_id_0_copy_0 CENTER=170.719,126.123 POLYGON=[[155.719,111.123],[185.719,111.123],[185.719,141.123],[155.719,141.123],[155.719,111.123]]
M73 P0 R35
;TYPE:Custom
BED_LOAD
G1 X128 Y128
G90
G21
M83 ; use relative distances for extrusion
; filament start gcode
M106 S0
;LAYER_CHANGE
;Z:0.2
;HEIGHT:0.2
;BEFORE_LAYER_CHANGE
;0.2
G92 E0

G1 E-.8 F1800
;AFTER_LAYER_CHANGE
;0.2
;_SET_FAN_SPEED_CHANGING_LAYER
SET_VELOCITY_LIMIT ACCEL=500 ACCEL_TO_DECEL=250
; printing object Voron_Design_Cube_v7 id:0 copy 0
EXCLUDE_OBJECT_START NAME=Voron_Design_Cube_v7_id_0_copy_0
G1 Z.6 F21000
G1 X184.505 Y134.751
G1 Z.6
G1 Z.2
G1 E.8 F1800
;TYPE:Inner wall
;WIDTH:0.479999
G1 F3000
G1 X179.348 Y139.908 E.25975
G1 X162.09 Y139.908 E.61466
G1 X156.933 Y134.751 E.25975
G1 X156.933 Y117.494 E.61466
G1 X162.09 Y112.337 E.25975
G1 X179.348 Y112.337 E.61466
G1 X184.505 Y117.494 E.25975
G1 X184.505 Y134.711 E.61323
G1 X184.942 Y134.933 F21000
G1 F3000
G1 X179.529 Y140.346 E.27265
G1 X161.909 Y140.346 E.62755
G1 X156.496 Y134.933 E.27265
G1 X156.496 Y117.313 E.62755
G1 X161.909 Y111.9 E.27265
G1 X179.529 Y111.9 E.62755
G1 X184.942 Y117.313 E.27265
G1 X184.942 Y134.893 E.62613
G1 X185.379 Y135.114 F21000
;TYPE:Outer wall
G1 F3000
G1 X179.71 Y140.783 E.28555
G1 X161.728 Y140.783 E.64045
G1 X156.059 Y135.114 E.28555
G1 X156.059 Y117.132 E.64045
G1 X161.728 Y111.463 E.28555
G1 X179.71 Y111.463 E.64045
G1 X185.379 Y117.132 E.28555
G1 X185.379 Y135.074 E.63903
G1 E-.56 F1800
;WIPE_START
G1 F3000
G1 X184.675 Y135.783 E-.24
;WIPE_END
G1 Z.6 F21000
G1 X172.857 Y117.526 Z.6
G1 Z.2
G1 E.8 F1800
;TYPE:Inner wall
G1 F3000
G1 X173.643 Y117.756 E.02917
G1 X174.491 Y118.103 E.03263
G1 X175.299 Y118.535 E.03263
G1 X176.394 Y119.317 E.04792
G1 X177.135 Y120.003 E.03597
G1 X177.945 Y120.994 E.0456
G1 X178.451 Y121.791 E.03362
G1 X178.857 Y122.612 E.03263
G1 X179.176 Y123.471 E.03263
G1 X179.404 Y124.358 E.03263
G1 X179.54 Y125.265 E.03263
G1 X179.581 Y126.18 E.03262
G1 X179.549 Y126.882 E.02505
G1 X179.426 Y127.776 E.03213
G1 X179.209 Y128.666 E.03263
G1 X178.901 Y129.529 E.03263
G1 X178.506 Y130.355 E.03263
G1 X178.027 Y131.137 E.03263
G1 X177.47 Y131.864 E.03263
G1 X176.842 Y132.531 E.03263
G1 X176.147 Y133.128 E.03263
G1 X175.395 Y133.651 E.03263
G1 X174.593 Y134.094 E.03263
G1 X173.687 Y134.478 E.03503
G1 X172.453 Y134.812 E.04554
G1 X171.519 Y134.949 E.03362
G1 X170.603 Y134.985 E.03263
G1 X169.689 Y134.925 E.03263
G1 X168.786 Y134.772 E.03263
G1 X167.903 Y134.526 E.03263
G1 X167.051 Y134.191 E.03263
G1 X166.237 Y133.769 E.03263
G1 X165.57 Y133.331 E.02842
G1 X164.763 Y132.685 E.03682
G1 X164.117 Y132.035 E.03263
G1 X163.542 Y131.322 E.03263
G1 X163.007 Y130.497 E.03503
G1 X162.462 Y129.339 E.04555
G1 X162.166 Y128.443 E.03362
G1 X161.972 Y127.548 E.03263
G1 X161.871 Y126.637 E.03263
G1 X161.865 Y125.721 E.03263
G1 X161.954 Y124.809 E.03263
G1 X162.137 Y123.911 E.03263
G1 X162.411 Y123.037 E.03263
G1 X162.801 Y122.134 E.03503
G1 X163.461 Y121.039 E.04555
G1 X164.042 Y120.295 E.03362
G1 X164.679 Y119.636 E.03263
G1 X165.381 Y119.048 E.03263
G1 X166.196 Y118.497 E.03503
G1 X167.343 Y117.93 E.04554
G1 X168.233 Y117.616 E.03362
G1 X169.124 Y117.405 E.03263
G1 X170.033 Y117.286 E.03263
G1 X170.949 Y117.263 E.03263
G1 X171.862 Y117.334 E.03263
G1 X172.763 Y117.499 E.03263
G1 X172.818 Y117.515 E.00204
G1 X172.734 Y117.944 F21000
G1 F3000
G1 X173.517 Y118.175 E.02909
G1 X174.323 Y118.506 E.03102
G1 X175.09 Y118.919 E.03102
G1 X176.137 Y119.671 E.04592
G1 X176.816 Y120.304 E.03306
G1 X177.607 Y121.271 E.04449
G1 X178.08 Y122.022 E.03161
G1 X178.464 Y122.803 E.03102
G1 X178.765 Y123.621 E.03102
G1 X178.98 Y124.465 E.03102
G1 X179.107 Y125.326 E.03102
G1 X179.145 Y126.197 E.03102
G1 X179.113 Y126.86 E.02365
G1 X178.993 Y127.714 E.03072
G1 X178.785 Y128.56 E.03102
G1 X178.49 Y129.379 E.03102
G1 X178.113 Y130.164 E.03102
G1 X177.656 Y130.906 E.03102
G1 X177.125 Y131.596 E.03102
G1 X176.526 Y132.229 E.03102
G1 X175.864 Y132.795 E.03102
G1 X175.148 Y133.291 E.03102
G1 X174.384 Y133.71 E.03102
G1 X173.543 Y134.064 E.03249
G1 X172.338 Y134.391 E.04446
G1 X171.46 Y134.516 E.03161
G1 X170.589 Y134.548 E.03102
G1 X169.72 Y134.489 E.03102
G1 X168.862 Y134.342 E.03102
G1 X168.023 Y134.106 E.03102
G1 X167.213 Y133.785 E.03102
G1 X166.441 Y133.382 E.03102
G1 X165.813 Y132.967 E.02682
G1 X165.041 Y132.349 E.03522
G1 X164.429 Y131.729 E.03102
G1 X163.884 Y131.05 E.03103
G1 X163.389 Y130.283 E.03249
G1 X162.858 Y129.153 E.04447
G1 X162.582 Y128.31 E.03161
G1 X162.399 Y127.458 E.03102
G1 X162.306 Y126.592 E.03103
G1 X162.303 Y125.721 E.03102
G1 X162.389 Y124.854 E.03103
G1 X162.564 Y124.001 E.03102
G1 X162.827 Y123.17 E.03102
G1 X163.19 Y122.334 E.03249
G1 X163.836 Y121.265 E.04446
G1 X164.384 Y120.567 E.03161
G1 X164.991 Y119.942 E.03102
G1 X165.66 Y119.384 E.03103
G1 X166.417 Y118.875 E.03249
G1 X167.536 Y118.322 E.04446
G1 X168.374 Y118.029 E.03161
G1 X169.222 Y117.83 E.03102
G1 X170.086 Y117.72 E.03102
G1 X170.957 Y117.7 E.03102
G1 X171.825 Y117.769 E.03102
G1 X172.682 Y117.928 E.03102
G1 X172.696 Y117.932 E.00051
G1 X172.609 Y118.36 F21000
;TYPE:Outer wall
G1 F3000
G1 X173.392 Y118.593 E.02909
G1 X174.155 Y118.91 E.02942
G1 X174.881 Y119.303 E.02942
G1 X175.881 Y120.025 E.04391
G1 X176.497 Y120.603 E.0301
G1 X177.268 Y121.547 E.04342
G1 X177.709 Y122.252 E.02961
G1 X178.071 Y122.995 E.02942
G1 X178.354 Y123.77 E.02942
G1 X178.556 Y124.571 E.02942
G1 X178.675 Y125.388 E.02941
G1 X178.708 Y126.214 E.02941
G1 X178.676 Y126.837 E.02224
G1 X178.561 Y127.652 E.02931
G1 X178.361 Y128.453 E.02942
G1 X178.08 Y129.23 E.02942
G1 X177.719 Y129.973 E.02942
G1 X177.285 Y130.675 E.02942
G1 X176.779 Y131.329 E.02942
G1 X176.21 Y131.927 E.02942
G1 X175.581 Y132.462 E.02942
G1 X174.901 Y132.93 E.02942
G1 X174.175 Y133.326 E.02942
G1 X173.4 Y133.65 E.02992
G1 X172.224 Y133.969 E.04342
G1 X171.401 Y134.083 E.02961
G1 X170.575 Y134.111 E.02942
G1 X169.751 Y134.053 E.02942
G1 X168.938 Y133.911 E.02942
G1 X168.143 Y133.686 E.02942
G1 X167.376 Y133.379 E.02942
G1 X166.645 Y132.995 E.02942
G1 X166.055 Y132.603 E.02521
G1 X165.32 Y132.012 E.03361
G1 X164.741 Y131.423 E.02942
G1 X164.226 Y130.778 E.02942
G1 X163.772 Y130.071 E.02992
G1 X163.254 Y128.967 E.04342
G1 X162.998 Y128.176 E.02961
G1 X162.827 Y127.368 E.02942
G1 X162.741 Y126.547 E.02942
G1 X162.74 Y125.721 E.02942
G1 X162.824 Y124.899 E.02942
G1 X162.992 Y124.091 E.02942
G1 X163.243 Y123.304 E.02942
G1 X163.58 Y122.534 E.02992
G1 X164.21 Y121.491 E.04342
G1 X164.726 Y120.839 E.02961
G1 X165.303 Y120.249 E.02942
G1 X165.939 Y119.721 E.02942
G1 X166.637 Y119.254 E.02992
G1 X167.73 Y118.714 E.04342
G1 X168.516 Y118.443 E.02961
G1 X169.32 Y118.256 E.02942
G1 X170.14 Y118.154 E.02942
G1 X170.966 Y118.137 E.02942
G1 X171.789 Y118.205 E.02942
G1 X172.57 Y118.352 E.02832
G1 E-.56 F1800
;WIPE_START
G1 F3000
G1 X173.392 Y118.593 E-.2056
G1 X173.524 Y118.648 E-.0344
;WIPE_END
G1 Z.6 F21000
G1 X184.374 Y117.826 Z.6
G1 Z.2
G1 E.8 F1800
;TYPE:Bottom surface
;WIDTH:0.480151
G1 F6300
G1 X179.212 Y112.665 E.26009
G1 X178.594 Y112.665 E.02203
G1 X184.177 Y118.248 E.28133
G1 X184.177 Y118.866 E.02203
G1 X177.975 Y112.665 E.31249
G1 X177.357 Y112.665 E.02203
G1 X184.177 Y119.485 E.34364
G1 X184.177 Y120.103 E.02203
G1 X176.739 Y112.665 E.3748
G1 X176.12 Y112.665 E.02203
G1 X184.177 Y120.721 E.40596
G1 X184.177 Y121.34 E.02203
G1 X175.502 Y112.665 E.43711
G1 X174.884 Y112.665 E.02203
G1 X184.177 Y121.958 E.46827
G1 X184.177 Y122.576 E.02203
G1 X174.265 Y112.665 E.49942
G1 X173.647 Y112.665 E.02203
G1 X184.177 Y123.195 E.53058
G1 X184.177 Y123.813 E.02203
G1 X173.029 Y112.665 E.56174
G1 X172.41 Y112.665 E.02203
G1 X184.177 Y124.431 E.59289
G1 X184.177 Y125.05 E.02203
G1 X171.792 Y112.665 E.62405
G1 X171.174 Y112.665 E.02203
G1 X184.177 Y125.668 E.6552
G1 X184.177 Y126.286 E.02203
G1 X170.555 Y112.665 E.68636
G1 X169.937 Y112.665 E.02203
G1 X175.635 Y118.362 E.28708
G1 X176.591 Y119.055 E.04209
G1 X177.344 Y119.751 E.03651
G1 X178.302 Y120.93 E.05415
G1 X178.458 Y121.186 E.01067
G1 X184.177 Y126.905 E.28816
G1 X184.177 Y127.523 E.02203
G1 X179.165 Y122.511 E.25256
G1 X179.523 Y123.487 E.03705
G1 X184.177 Y128.141 E.23452
G1 X184.177 Y128.76 E.02203
G1 X179.722 Y124.305 E.22447
G1 X179.833 Y125.034 E.02629
G1 X184.177 Y129.378 E.21887
G1 X184.177 Y129.996 E.02203
G1 X179.891 Y125.71 E.21599
G1 X179.903 Y126.341 E.02249
G1 X184.177 Y130.615 E.21535
G1 X184.177 Y131.233 E.02203
G1 X179.87 Y126.926 E.21701
G1 X179.797 Y127.472 E.0196
G1 X184.177 Y131.851 E.22069
G1 X184.177 Y132.47 E.02203
G1 X179.712 Y128.005 E.22498
G1 X179.585 Y128.496 E.01808
G1 X184.177 Y133.088 E.23138
G1 X184.177 Y133.706 E.02203
G1 X179.449 Y128.979 E.23823
G1 X179.282 Y129.429 E.01713
G1 X184.177 Y134.325 E.24668
G1 X184.177 Y134.616 E.01036
G1 X184.014 Y134.779 E.00825
G1 X179.105 Y129.871 E.24733
M73 P1 R35
G1 X178.9 Y130.284 E.01644
M73 P1 R35
G1 X183.704 Y135.089 E.24208
G1 X183.395 Y135.398 E.01558
G1 X178.689 Y130.692 E.23712
G1 X178.451 Y131.072 E.01599
G1 X183.086 Y135.707 E.23353
G1 X182.777 Y136.016 E.01558
G1 X178.207 Y131.447 E.23024
G1 X177.938 Y131.795 E.01571
G1 X182.468 Y136.325 E.22824
G1 X182.159 Y136.634 E.01558
G1 X177.662 Y132.138 E.22658
G1 X177.362 Y132.456 E.01558
G1 X181.849 Y136.944 E.22612
G1 X181.54 Y137.253 E.01558
G1 X177.062 Y132.774 E.22566
G1 X176.728 Y133.059 E.01563
G1 X181.231 Y137.562 E.2269
G1 X180.922 Y137.871 E.01558
G1 X176.393 Y133.343 E.22818
G1 X176.039 Y133.607 E.01574
G1 X180.613 Y138.18 E.23043
G1 X180.304 Y138.489 E.01558
G1 X175.673 Y133.859 E.23334
G1 X175.283 Y134.087 E.0161
G1 X179.994 Y138.799 E.2374
G1 X179.685 Y139.108 E.01558
G1 X174.885 Y134.307 E.24189
G1 X174.463 Y134.504 E.01657
G1 X179.376 Y139.417 E.24754
G1 X179.212 Y139.581 E.00825
G1 X178.921 Y139.581 E.01037
G1 X174.029 Y134.688 E.2465
G1 X173.869 Y134.756 E.0062
G1 X173.563 Y134.841 E.01131
G1 X178.303 Y139.581 E.23883
G1 X177.685 Y139.581 E.02203
G1 X173.078 Y134.974 E.2321
G1 X172.593 Y135.108 E.01792
G1 X177.066 Y139.581 E.22538
G1 X176.448 Y139.581 E.02203
G1 X172.071 Y135.204 E.22052
G1 X171.525 Y135.276 E.01964
G1 X175.83 Y139.581 E.2169
G1 X175.211 Y139.581 E.02203
G1 X170.93 Y135.299 E.21574
G1 X170.567 Y135.313 E.01295
G1 X170.308 Y135.296 E.00923
G1 X174.593 Y139.581 E.21591
G1 X173.975 Y139.581 E.02203
G1 X169.643 Y135.249 E.21826
G1 X168.899 Y135.123 E.02687
G1 X173.356 Y139.581 E.22458
G1 X172.738 Y139.581 E.02203
G1 X168.07 Y134.913 E.23521
G1 X167.809 Y134.84 E.00966
G1 X167.102 Y134.563 E.02706
G1 X172.316 Y139.777 E.26275
G1 E-.56 F1800
;WIPE_START
G1 F6300
G1 X171.609 Y139.07 E-.24
;WIPE_END
G1 Z.6 F21000
G1 X174.751 Y118.097 Z.6
G1 Z.2
G1 E.8 F1800
G1 F6300
G1 X169.319 Y112.665 E.27373
G1 X168.7 Y112.665 E.02203
G1 X173.371 Y117.336 E.23536
G1 X172.829 Y117.178 E.02012
G1 X172.543 Y117.126 E.01036
G1 X168.082 Y112.665 E.22478
G1 X167.464 Y112.665 E.02203
G1 X171.799 Y117 E.21846
G1 X171.13 Y116.949 E.02393
G1 X166.845 Y112.665 E.21588
G1 X166.227 Y112.665 E.02203
G1 X170.509 Y116.947 E.21576
G1 X169.915 Y116.971 E.02119
G1 X165.609 Y112.665 E.21698
G1 X164.99 Y112.665 E.02203
G1 X169.366 Y117.04 E.22045
G1 X169.124 Y117.07 E.00868
G1 X168.842 Y117.134 E.0103
G1 X164.372 Y112.665 E.22522
G1 X163.754 Y112.665 E.02203
G1 X168.338 Y117.249 E.23101
G1 X167.869 Y117.398 E.01755
G1 X163.135 Y112.665 E.2385
G1 X162.517 Y112.665 E.02203
G1 X167.405 Y117.553 E.2463
G1 X166.987 Y117.752 E.01653
G1 X162.062 Y112.828 E.24811
G1 X161.753 Y113.137 E.01558
G1 X166.573 Y117.957 E.24284
G1 X166.159 Y118.161 E.01645
G1 X161.444 Y113.447 E.23756
G1 X161.135 Y113.756 E.01558
G1 X165.769 Y118.39 E.2335
G1 X165.4 Y118.64 E.01586
G1 X160.826 Y114.065 E.23051
G1 X160.517 Y114.374 E.01558
G1 X165.045 Y118.902 E.22815
G1 X164.708 Y119.184 E.01564
G1 X160.207 Y114.683 E.22678
G1 X159.898 Y114.993 E.01558
G1 X164.38 Y119.474 E.22583
G1 X164.076 Y119.789 E.01558
G1 X159.589 Y115.302 E.2261
G1 X159.28 Y115.611 E.01558
G1 X163.774 Y120.105 E.22645
G1 X163.501 Y120.45 E.01568
G1 X158.971 Y115.92 E.22826
G1 X158.662 Y116.229 E.01558
G1 X163.229 Y120.796 E.23011
G1 X162.998 Y121.184 E.01607
G1 X158.352 Y116.538 E.23406
G1 X158.043 Y116.848 E.01558
G1 X162.767 Y121.571 E.238
G1 X162.536 Y121.958 E.01607
G1 X157.734 Y117.157 E.24194
G1 X157.425 Y117.466 E.01558
G1 X162.338 Y122.379 E.24756
G1 X162.152 Y122.811 E.01677
G1 X157.261 Y117.921 E.24644
G1 X157.261 Y118.539 E.02203
G1 X161.994 Y123.272 E.23847
G1 X161.847 Y123.743 E.01759
G1 X157.261 Y119.157 E.23106
G1 X157.261 Y119.776 E.02203
G1 X161.734 Y124.248 E.22537
G1 X161.63 Y124.763 E.0187
G1 X157.261 Y120.394 E.22014
G1 X157.261 Y121.012 E.02203
G1 X161.575 Y125.326 E.21736
G1 X161.538 Y125.716 E.01396
G1 X161.539 Y125.908 E.00685
G1 X157.261 Y121.631 E.21555
G1 X157.261 Y122.249 E.02203
G1 X161.544 Y126.531 E.21578
G1 X161.603 Y127.209 E.02424
G1 X157.261 Y122.867 E.21877
G1 X157.261 Y123.486 E.02203
G1 X161.72 Y127.945 E.22469
G1 X161.817 Y128.407 E.01681
G1 X161.932 Y128.775 E.01374
G1 X157.261 Y124.104 E.23534
G1 X157.261 Y124.722 E.02203
G1 X162.73 Y130.191 E.27556
G1 E-.56 F1800
;WIPE_START
G1 F6300
G1 X162.023 Y129.484 E-.24
;WIPE_END
G1 Z.6 F21000
G1 X157.065 Y125.144 Z.6
G1 Z.2
G1 E.8 F1800
G1 F6300
G1 X162.975 Y131.054 E.29779
G1 X163.222 Y131.44 E.01635
G1 X163.879 Y132.261 E.03746
G1 X164.55 Y132.935 E.03385
G1 X165.26 Y133.518 E.03276
G1 X165.779 Y133.859 E.02213
G1 X171.501 Y139.581 E.2883
G1 X170.883 Y139.581 E.02203
G1 X157.261 Y125.959 E.68635
G1 X157.261 Y126.577 E.02203
G1 X170.265 Y139.581 E.6552
G1 X169.646 Y139.581 E.02203
G1 X157.261 Y127.196 E.62404
G1 X157.261 Y127.814 E.02203
G1 X169.028 Y139.581 E.59289
G1 X168.41 Y139.581 E.02203
G1 X157.261 Y128.432 E.56173
G1 X157.261 Y129.051 E.02203
G1 X167.791 Y139.581 E.53057
G1 X167.173 Y139.581 E.02203
G1 X157.261 Y129.669 E.49942
G1 X157.261 Y130.287 E.02203
G1 X166.555 Y139.581 E.46826
G1 X165.936 Y139.581 E.02203
G1 X157.261 Y130.906 E.43711
G1 X157.261 Y131.524 E.02203
G1 X165.318 Y139.581 E.40595
M73 P2 R35
G1 X164.7 Y139.581 E.02203
M73 P2 R35
G1 X157.261 Y132.142 E.37479
G1 X157.261 Y132.761 E.02203
G1 X164.081 Y139.581 E.34364
G1 X163.463 Y139.581 E.02203
G1 X157.261 Y133.379 E.31248
G1 X157.261 Y133.997 E.02203
G1 X162.845 Y139.581 E.28133
G1 X162.226 Y139.581 E.02203
G1 X157.065 Y134.419 E.26008
; stop printing object Voron_Design_Cube_v7 id:0 copy 0
M106 S255
;LAYER_CHANGE
;Z:0.4
;HEIGHT:0.2
;BEFORE_LAYER_CHANGE
;0.4
G92 E0

G1 E-.56 F1800
;WIPE_START
G1 F6300
G1 X157.772 Y135.126 E-.24
;WIPE_END
EXCLUDE_OBJECT_END NAME=Voron_Design_Cube_v7_id_0_copy_0
;AFTER_LAYER_CHANGE
;0.4
;_SET_FAN_SPEED_CHANGING_LAYER
SET_VELOCITY_LIMIT ACCEL=5000 ACCEL_TO_DECEL=2500
M140 S60 ; set bed temperature
; printing object Voron_Design_Cube_v7 id:0 copy 0
SET_VELOCITY_LIMIT ACCEL=7000 ACCEL_TO_DECEL=3500
EXCLUDE_OBJECT_START NAME=Voron_Design_Cube_v7_id_0_copy_0
G1 Z.8 F21000
G1 X184.745 Y135.019 Z.8
G1 Z.4
G1 E.8 F1800
SET_VELOCITY_LIMIT ACCEL=5000 ACCEL_TO_DECEL=2500
;TYPE:Inner wall
;WIDTH:0.439999
G1 F9066.206
G1 X179.616 Y140.148 E.23472
G1 X161.823 Y140.148 E.57573
G1 X156.693 Y135.019 E.23472
G1 X156.693 Y117.226 E.57573
G1 X161.823 Y112.097 E.23472
G1 X179.616 Y112.097 E.57573
G1 X184.745 Y117.226 E.23472
G1 X184.745 Y134.979 E.57443
SET_VELOCITY_LIMIT ACCEL=7000 ACCEL_TO_DECEL=3500
G1 X185.142 Y135.184 F21000
SET_VELOCITY_LIMIT ACCEL=5000 ACCEL_TO_DECEL=2500
G1 F9066.206
G1 X179.78 Y140.546 E.24536
G1 X161.658 Y140.546 E.58637
G1 X156.296 Y135.184 E.24536
