; HEADER_BLOCK_START
; generated by OrcaSlicer 2.2.0 on 2025-05-19 at 20:27:30
; total layer number: 150
; filament_density: 1.24
; filament_diameter: 1.75
; max_z_height: 30.00
; HEADER_BLOCK_END

; THUMBNAIL_BLOCK_START

;
; THUMBNAIL_BLOCK_END

; THUMBNAIL_BLOCK_START

;
; THUMBNAIL_BLOCK_END

; external perimeters extrusion width = 0.40mm
; perimeters extrusion width = 0.44mm
; infill extrusion width = 0.44mm
; solid infill extrusion width = 0.48mm
; top infill extrusion width = 0.38mm
; first layer extrusion width = 0.48mm

; EXECUTABLE_BLOCK_START
EXCLUDE_OBJECT_DEFINE NAME=Voron_Design_Cube_v7_id_0_copy_0 CENTER=128,128 POLYGON=[[113,113],[143,113],[143,143],[113,143],[113,113]]
M73 P0 R35
;TYPE:Custom
G28 Z
G0 Z10
G28 X
G28 Y
G0 X128 Y128 F12000
M109 S210 T0
PURGE
G90
G21
M83 ; use relative distances for extrusion
; filament start gcode
M106 S0
;LAYER_CHANGE
;Z:0.2
;HEIGHT:0.2
;BEFORE_LAYER_CHANGE
;0.2
G92 E0

G1 E-.8 F1800
;AFTER_LAYER_CHANGE
;0.2
;_SET_FAN_SPEED_CHANGING_LAYER
SET_VELOCITY_LIMIT ACCEL=500 ACCEL_TO_DECEL=250
; printing object Voron_Design_Cube_v7 id:0 copy 0
EXCLUDE_OBJECT_START NAME=Voron_Design_Cube_v7_id_0_copy_0
G1 Z.6 F21000
G1 X141.786 Y136.629
G1 Z.6
G1 Z.2
G1 E.8 F1800
;TYPE:Inner wall
;WIDTH:0.479999
G1 F3000
G1 X136.629 Y141.786 E.25975
G1 X119.371 Y141.786 E.61466
G1 X114.214 Y136.629 E.25975
G1 X114.214 Y119.371 E.61466
G1 X119.371 Y114.214 E.25975
G1 X136.629 Y114.214 E.61466
G1 X141.786 Y119.371 E.25975
G1 X141.786 Y136.589 E.61323
G1 X142.223 Y136.81 F21000
G1 F3000
G1 X136.81 Y142.223 E.27265
G1 X119.19 Y142.223 E.62755
G1 X113.777 Y136.81 E.27265
G1 X113.777 Y119.19 E.62755
G1 X119.19 Y113.777 E.27265
G1 X136.81 Y113.777 E.62755
G1 X142.223 Y119.19 E.27265
G1 X142.223 Y136.77 E.62613
G1 X142.66 Y136.991 F21000
;TYPE:Outer wall
G1 F3000
G1 X136.991 Y142.66 E.28555
G1 X119.009 Y142.66 E.64045
G1 X113.34 Y136.991 E.28555
G1 X113.34 Y119.009 E.64045
G1 X119.009 Y113.34 E.28555
G1 X136.991 Y113.34 E.64045
G1 X142.66 Y119.009 E.28555
G1 X142.66 Y136.951 E.63903
G1 E-.56 F1800
;WIPE_START
G1 F3000
G1 X141.955 Y137.661 E-.24
;WIPE_END
G1 Z.6 F21000
G1 X130.137 Y119.404 Z.6
G1 Z.2
G1 E.8 F1800
;TYPE:Inner wall
G1 F3000
G1 X130.924 Y119.633 E.02917
G1 X131.772 Y119.98 E.03263
G1 X132.579 Y120.412 E.03263
G1 X133.674 Y121.194 E.04792
G1 X134.416 Y121.88 E.03597
G1 X135.226 Y122.871 E.0456
G1 X135.732 Y123.668 E.03362
G1 X136.138 Y124.49 E.03263
G1 X136.456 Y125.349 E.03263
G1 X136.685 Y126.236 E.03263
G1 X136.821 Y127.142 E.03263
G1 X136.862 Y128.057 E.03262
G1 X136.83 Y128.76 E.02505
G1 X136.707 Y129.653 E.03213
G1 X136.49 Y130.543 E.03263
G1 X136.182 Y131.406 E.03263
G1 X135.786 Y132.233 E.03263
G1 X135.308 Y133.014 E.03263
G1 X134.751 Y133.742 E.03263
G1 X134.122 Y134.408 E.03263
G1 X133.428 Y135.006 E.03263
G1 X132.676 Y135.529 E.03263
G1 X131.874 Y135.971 E.03263
G1 X130.968 Y136.355 E.03503
G1 X129.734 Y136.69 E.04554
G1 X128.8 Y136.827 E.03362
G1 X127.884 Y136.862 E.03263
G1 X126.97 Y136.803 E.03263
G1 X126.067 Y136.649 E.03263
G1 X125.184 Y136.404 E.03263
G1 X124.331 Y136.068 E.03263
G1 X123.518 Y135.646 E.03263
G1 X122.851 Y135.208 E.02842
G1 X122.043 Y134.563 E.03682
G1 X121.398 Y133.913 E.03263
G1 X120.822 Y133.199 E.03263
G1 X120.287 Y132.374 E.03503
G1 X119.743 Y131.217 E.04555
G1 X119.446 Y130.321 E.03362
G1 X119.252 Y129.425 E.03263
G1 X119.152 Y128.515 E.03263
G1 X119.146 Y127.598 E.03263
G1 X119.235 Y126.686 E.03263
G1 X119.417 Y125.789 E.03263
G1 X119.692 Y124.914 E.03263
G1 X120.081 Y124.011 E.03503
G1 X120.742 Y122.916 E.04555
G1 X121.323 Y122.172 E.03362
G1 X121.96 Y121.514 E.03263
G1 X122.662 Y120.925 E.03263
G1 X123.477 Y120.374 E.03503
G1 X124.623 Y119.807 E.04554
G1 X125.513 Y119.493 E.03362
G1 X126.405 Y119.282 E.03263
G1 X127.314 Y119.164 E.03263
G1 X128.229 Y119.14 E.03263
G1 X129.143 Y119.211 E.03263
G1 X130.044 Y119.376 E.03263
G1 X130.099 Y119.392 E.00204
G1 X130.015 Y119.821 F21000
G1 F3000
G1 X130.798 Y120.052 E.02909
G1 X131.604 Y120.383 E.03102
G1 X132.371 Y120.796 E.03102
G1 X133.418 Y121.548 E.04592
G1 X134.097 Y122.181 E.03306
G1 X134.887 Y123.148 E.04449
G1 X135.361 Y123.899 E.03161
G1 X135.745 Y124.681 E.03102
G1 X136.046 Y125.498 E.03102
G1 X136.261 Y126.342 E.03102
G1 X136.388 Y127.204 E.03102
G1 X136.425 Y128.074 E.03102
G1 X136.394 Y128.737 E.02365
G1 X136.274 Y129.591 E.03072
G1 X136.066 Y130.437 E.03102
G1 X135.771 Y131.257 E.03102
G1 X135.393 Y132.042 E.03102
G1 X134.937 Y132.783 E.03102
G1 X134.406 Y133.474 E.03102
G1 X133.806 Y134.106 E.03102
G1 X133.145 Y134.673 E.03102
G1 X132.429 Y135.168 E.03102
G1 X131.665 Y135.587 E.03102
G1 X130.824 Y135.941 E.03249
G1 X129.619 Y136.268 E.04446
G1 X128.741 Y136.394 E.03161
G1 X127.87 Y136.425 E.03102
G1 X127.001 Y136.367 E.03102
G1 X126.142 Y136.219 E.03102
G1 X125.304 Y135.983 E.03102
G1 X124.494 Y135.662 E.03102
G1 X123.722 Y135.259 E.03102
G1 X123.094 Y134.844 E.02682
G1 X122.322 Y134.226 E.03522
G1 X121.71 Y133.607 E.03102
G1 X121.164 Y132.927 E.03103
G1 X120.67 Y132.161 E.03249
G1 X120.139 Y131.031 E.04447
G1 X119.863 Y130.187 E.03161
G1 X119.68 Y129.335 E.03102
G1 X119.587 Y128.469 E.03103
G1 X119.583 Y127.598 E.03102
G1 X119.67 Y126.732 E.03103
G1 X119.845 Y125.878 E.03102
G1 X120.108 Y125.048 E.03102
G1 X120.471 Y124.211 E.03249
G1 X121.116 Y123.142 E.04446
G1 X121.665 Y122.444 E.03161
G1 X122.272 Y121.82 E.03102
G1 X122.941 Y121.262 E.03103
G1 X123.698 Y120.752 E.03249
G1 X124.817 Y120.199 E.04446
G1 X125.655 Y119.907 E.03161
G1 X126.503 Y119.708 E.03102
G1 X127.367 Y119.598 E.03102
G1 X128.238 Y119.577 E.03102
G1 X129.106 Y119.647 E.03102
G1 X129.963 Y119.806 E.03102
G1 X129.976 Y119.81 E.00051
G1 X129.89 Y120.238 F21000
;TYPE:Outer wall
G1 F3000
G1 X130.673 Y120.471 E.02909
G1 X131.436 Y120.787 E.02942
G1 X132.162 Y121.18 E.02942
G1 X133.162 Y121.902 E.04391
G1 X133.778 Y122.481 E.0301
G1 X134.549 Y123.425 E.04342
G1 X134.989 Y124.13 E.02961
G1 X135.351 Y124.872 E.02942
G1 X135.635 Y125.648 E.02942
G1 X135.837 Y126.448 E.02942
G1 X135.955 Y127.266 E.02941
G1 X135.989 Y128.091 E.02941
G1 X135.957 Y128.715 E.02224
G1 X135.841 Y129.529 E.02931
G1 X135.642 Y130.331 E.02942
G1 X135.36 Y131.107 E.02942
G1 X135 Y131.85 E.02942
G1 X134.565 Y132.553 E.02942
G1 X134.06 Y133.206 E.02942
G1 X133.49 Y133.804 E.02942
G1 X132.862 Y134.34 E.02942
G1 X132.181 Y134.808 E.02942
G1 X131.456 Y135.203 E.02942
G1 X130.681 Y135.527 E.02992
G1 X129.505 Y135.846 E.04342
G1 X128.681 Y135.96 E.02961
G1 X127.856 Y135.988 E.02942
G1 X127.032 Y135.931 E.02942
G1 X126.218 Y135.788 E.02942
G1 X125.424 Y135.563 E.02942
G1 X124.657 Y135.257 E.02942
G1 X123.926 Y134.873 E.02942
G1 X123.336 Y134.481 E.02521
G1 X122.601 Y133.889 E.03361
G1 X122.022 Y133.301 E.02942
G1 X121.506 Y132.655 E.02942
G1 X121.053 Y131.948 E.02992
G1 X120.534 Y130.845 E.04342
G1 X120.279 Y130.054 E.02961
G1 X120.108 Y129.246 E.02942
G1 X120.022 Y128.424 E.02942
G1 X120.02 Y127.598 E.02942
G1 X120.104 Y126.777 E.02942
G1 X120.273 Y125.968 E.02942
G1 X120.524 Y125.181 E.02942
G1 X120.861 Y124.412 E.02992
G1 X121.49 Y123.368 E.04342
G1 X122.007 Y122.716 E.02961
G1 X122.584 Y122.126 E.02942
G1 X123.22 Y121.598 E.02942
G1 X123.918 Y121.131 E.02992
G1 X125.011 Y120.591 E.04342
G1 X125.796 Y120.32 E.02961
G1 X126.601 Y120.134 E.02942
G1 X127.421 Y120.031 E.02942
G1 X128.246 Y120.014 E.02942
G1 X129.07 Y120.082 E.02942
G1 X129.851 Y120.229 E.02832
G1 E-.56 F1800
;WIPE_START
G1 F3000
G1 X130.673 Y120.471 E-.2056
G1 X130.805 Y120.526 E-.0344
;WIPE_END
G1 Z.6 F21000
G1 X141.655 Y119.704 Z.6
G1 Z.2
G1 E.8 F1800
;TYPE:Bottom surface
;WIDTH:0.480151
G1 F6300
G1 X136.493 Y114.542 E.26009
G1 X135.875 Y114.542 E.02203
G1 X141.458 Y120.125 E.28133
G1 X141.458 Y120.744 E.02203
G1 X135.256 Y114.542 E.31249
G1 X134.638 Y114.542 E.02203
G1 X141.458 Y121.362 E.34364
G1 X141.458 Y121.98 E.02203
G1 X134.02 Y114.542 E.3748
G1 X133.401 Y114.542 E.02203
G1 X141.458 Y122.599 E.40596
G1 X141.458 Y123.217 E.02203
G1 X132.783 Y114.542 E.43711
G1 X132.165 Y114.542 E.02203
G1 X141.458 Y123.835 E.46827
G1 X141.458 Y124.454 E.02203
G1 X131.546 Y114.542 E.49942
G1 X130.928 Y114.542 E.02203
G1 X141.458 Y125.072 E.53058
G1 X141.458 Y125.69 E.02203
G1 X130.31 Y114.542 E.56174
G1 X129.691 Y114.542 E.02203
G1 X141.458 Y126.309 E.59289
G1 X141.458 Y126.927 E.02203
G1 X129.073 Y114.542 E.62405
G1 X128.455 Y114.542 E.02203
G1 X141.458 Y127.545 E.6552
G1 X141.458 Y128.164 E.02203
G1 X127.836 Y114.542 E.68636
G1 X127.218 Y114.542 E.02203
G1 X132.915 Y120.24 E.28708
G1 X133.872 Y120.933 E.04209
G1 X134.625 Y121.628 E.03651
G1 X135.583 Y122.808 E.05415
G1 X135.739 Y123.063 E.01067
G1 X141.458 Y128.782 E.28816
G1 X141.458 Y129.401 E.02203
G1 X136.446 Y124.388 E.25256
G1 X136.804 Y125.364 E.03705
G1 X141.458 Y130.019 E.23452
G1 X141.458 Y130.637 E.02203
G1 X137.003 Y126.182 E.22447
G1 X137.114 Y126.912 E.02629
G1 X141.458 Y131.256 E.21887
G1 X141.458 Y131.874 E.02203
G1 X137.171 Y127.587 E.21599
G1 X137.184 Y128.218 E.02249
G1 X141.458 Y132.492 E.21535
G1 X141.458 Y133.111 E.02203
G1 X137.151 Y128.804 E.21701
G1 X137.078 Y129.349 E.0196
M73 P1 R35
G1 X141.458 Y133.729 E.22069
G1 X141.458 Y134.347 E.02203
G1 X136.993 Y129.882 E.22498
G1 X136.866 Y130.373 E.01808
M73 P1 R35
G1 X141.458 Y134.966 E.23138
G1 X141.458 Y135.584 E.02203
G1 X136.73 Y130.856 E.23823
G1 X136.562 Y131.306 E.01713
G1 X141.458 Y136.202 E.24668
G1 X141.458 Y136.493 E.01036
G1 X141.294 Y136.657 E.00825
G1 X136.386 Y131.748 E.24733
G1 X136.181 Y132.162 E.01644
G1 X140.985 Y136.966 E.24208
G1 X140.676 Y137.275 E.01558
G1 X135.97 Y132.569 E.23712
G1 X135.732 Y132.95 E.01599
G1 X140.367 Y137.584 E.23353
G1 X140.058 Y137.893 E.01558
G1 X135.488 Y133.324 E.23024
G1 X135.219 Y133.673 E.01571
G1 X139.748 Y138.203 E.22824
G1 X139.439 Y138.512 E.01558
G1 X134.942 Y134.015 E.22658
G1 X134.642 Y134.333 E.01558
G1 X139.13 Y138.821 E.22612
G1 X138.821 Y139.13 E.01558
G1 X134.342 Y134.652 E.22566
G1 X134.009 Y134.936 E.01563
G1 X138.512 Y139.439 E.2269
G1 X138.203 Y139.749 E.01558
G1 X133.674 Y135.22 E.22818
G1 X133.32 Y135.484 E.01574
G1 X137.893 Y140.058 E.23043
G1 X137.584 Y140.367 E.01558
G1 X132.953 Y135.736 E.23334
G1 X132.563 Y135.964 E.0161
G1 X137.275 Y140.676 E.2374
G1 X136.966 Y140.985 E.01558
G1 X132.165 Y136.185 E.24189
G1 X131.744 Y136.381 E.01657
G1 X136.657 Y141.294 E.24754
G1 X136.493 Y141.458 E.00825
G1 X136.202 Y141.458 E.01037
G1 X131.31 Y136.566 E.2465
G1 X131.15 Y136.634 E.0062
G1 X130.844 Y136.718 E.01131
G1 X135.584 Y141.458 E.23883
G1 X134.965 Y141.458 E.02203
G1 X130.359 Y136.852 E.2321
G1 X129.874 Y136.985 E.01792
G1 X134.347 Y141.458 E.22538
G1 X133.729 Y141.458 E.02203
G1 X129.352 Y137.081 E.22052
G1 X128.806 Y137.153 E.01964
G1 X133.11 Y141.458 E.2169
G1 X132.492 Y141.458 E.02203
G1 X128.21 Y137.176 E.21574
G1 X127.847 Y137.191 E.01295
G1 X127.589 Y137.173 E.00923
G1 X131.874 Y141.458 E.21591
G1 X131.255 Y141.458 E.02203
G1 X126.924 Y137.126 E.21826
G1 X126.18 Y137.001 E.02687
G1 X130.637 Y141.458 E.22458
G1 X130.019 Y141.458 E.02203
G1 X125.351 Y136.79 E.23521
G1 X125.089 Y136.717 E.00966
G1 X124.382 Y136.44 E.02706
G1 X129.597 Y141.655 E.26275
G1 E-.56 F1800
;WIPE_START
G1 F6300
G1 X128.89 Y140.948 E-.24
;WIPE_END
G1 Z.6 F21000
G1 X132.032 Y119.975 Z.6
G1 Z.2
G1 E.8 F1800
G1 F6300
G1 X126.599 Y114.542 E.27373
G1 X125.981 Y114.542 E.02203
G1 X130.652 Y119.213 E.23536
G1 X130.11 Y119.055 E.02012
G1 X129.824 Y119.003 E.01036
G1 X125.363 Y114.542 E.22478
G1 X124.744 Y114.542 E.02203
G1 X129.08 Y118.878 E.21846
G1 X128.411 Y118.826 E.02393
G1 X124.126 Y114.542 E.21588
G1 X123.508 Y114.542 E.02203
G1 X127.79 Y118.824 E.21576
G1 X127.196 Y118.848 E.02119
G1 X122.889 Y114.542 E.21698
G1 X122.271 Y114.542 E.02203
G1 X126.646 Y118.917 E.22045
G1 X126.405 Y118.948 E.00868
G1 X126.123 Y119.012 E.0103
G1 X121.653 Y114.542 E.22522
G1 X121.034 Y114.542 E.02203
G1 X125.619 Y119.127 E.23101
G1 X125.15 Y119.275 E.01755
G1 X120.416 Y114.542 E.2385
G1 X119.798 Y114.542 E.02203
G1 X124.686 Y119.43 E.2463
G1 X124.267 Y119.63 E.01653
G1 X119.343 Y114.706 E.24811
G1 X119.034 Y115.015 E.01558
G1 X123.853 Y119.834 E.24284
G1 X123.44 Y120.039 E.01645
G1 X118.725 Y115.324 E.23756
G1 X118.416 Y115.633 E.01558
G1 X123.05 Y120.267 E.2335
G1 X122.681 Y120.517 E.01586
G1 X118.107 Y115.942 E.23051
G1 X117.797 Y116.252 E.01558
G1 X122.325 Y120.78 E.22815
G1 X121.989 Y121.062 E.01564
G1 X117.488 Y116.561 E.22678
G1 X117.179 Y116.87 E.01558
G1 X121.661 Y121.352 E.22583
G1 X121.357 Y121.666 E.01558
G1 X116.87 Y117.179 E.2261
G1 X116.561 Y117.488 E.01558
G1 X121.055 Y121.982 E.22645
G1 X120.782 Y122.328 E.01568
G1 X116.251 Y117.797 E.22826
G1 X115.942 Y118.107 E.01558
G1 X120.509 Y122.674 E.23011
G1 X120.278 Y123.061 E.01607
G1 X115.633 Y118.416 E.23406
G1 X115.324 Y118.725 E.01558
G1 X120.047 Y123.448 E.238
G1 X119.816 Y123.836 E.01607
G1 X115.015 Y119.034 E.24194
G1 X114.706 Y119.343 E.01558
G1 X119.619 Y124.256 E.24756
G1 X119.433 Y124.689 E.01677
G1 X114.542 Y119.798 E.24644
G1 X114.542 Y120.416 E.02203
G1 X119.275 Y125.149 E.23847
G1 X119.128 Y125.62 E.01759
G1 X114.542 Y121.035 E.23106
G1 X114.542 Y121.653 E.02203
G1 X119.015 Y126.126 E.22537
G1 X118.911 Y126.64 E.0187
G1 X114.542 Y122.271 E.22014
G1 X114.542 Y122.89 E.02203
G1 X118.856 Y127.204 E.21736
G1 X118.818 Y127.593 E.01396
G1 X118.82 Y127.786 E.00685
G1 X114.542 Y123.508 E.21555
G1 X114.542 Y124.126 E.02203
G1 X118.824 Y128.409 E.21578
G1 X118.884 Y129.086 E.02424
G1 X114.542 Y124.745 E.21877
G1 X114.542 Y125.363 E.02203
G1 X119.001 Y129.822 E.22469
G1 X119.098 Y130.284 E.01681
G1 X119.213 Y130.652 E.01374
G1 X114.542 Y125.981 E.23534
G1 X114.542 Y126.6 E.02203
G1 X120.011 Y132.069 E.27556
G1 E-.56 F1800
;WIPE_START
G1 F6300
G1 X119.304 Y131.361 E-.24
;WIPE_END
G1 Z.6 F21000
G1 X114.345 Y127.021 Z.6
G1 Z.2
G1 E.8 F1800
G1 F6300
G1 X120.255 Y132.931 E.29779
G1 X120.503 Y133.318 E.01635
G1 X121.16 Y134.139 E.03746
G1 X121.83 Y134.812 E.03385
G1 X122.541 Y135.395 E.03276
G1 X123.06 Y135.736 E.02213
G1 X128.782 Y141.458 E.2883
G1 X128.164 Y141.458 E.02203
G1 X114.542 Y127.836 E.68635
G1 X114.542 Y128.455 E.02203
G1 X127.545 Y141.458 E.6552
G1 X126.927 Y141.458 E.02203
G1 X114.542 Y129.073 E.62404
G1 X114.542 Y129.691 E.02203
G1 X126.309 Y141.458 E.59289
G1 X125.69 Y141.458 E.02203
G1 X114.542 Y130.31 E.56173
G1 X114.542 Y130.928 E.02203
G1 X125.072 Y141.458 E.53057
M73 P2 R35
G1 X124.454 Y141.458 E.02203
G1 X114.542 Y131.546 E.49942
G1 X114.542 Y132.165 E.02203
G1 X123.835 Y141.458 E.46826
M73 P2 R35
G1 X123.217 Y141.458 E.02203
G1 X114.542 Y132.783 E.43711
G1 X114.542 Y133.401 E.02203
G1 X122.599 Y141.458 E.40595
G1 X121.98 Y141.458 E.02203
G1 X114.542 Y134.02 E.37479
G1 X114.542 Y134.638 E.02203
G1 X121.362 Y141.458 E.34364
G1 X120.744 Y141.458 E.02203
G1 X114.542 Y135.256 E.31248
G1 X114.542 Y135.875 E.02203
G1 X120.125 Y141.458 E.28133
G1 X119.507 Y141.458 E.02203
G1 X114.345 Y136.296 E.26008
; stop printing object Voron_Design_Cube_v7 id:0 copy 0
M106 S255
;LAYER_CHANGE
;Z:0.4
;HEIGHT:0.2
;BEFORE_LAYER_CHANGE
;0.4
G92 E0

G1 E-.56 F1800
;WIPE_START
G1 F6300
G1 X115.052 Y137.003 E-.24
;WIPE_END
EXCLUDE_OBJECT_END NAME=Voron_Design_Cube_v7_id_0_copy_0
;AFTER_LAYER_CHANGE
;0.4
;_SET_FAN_SPEED_CHANGING_LAYER
SET_VELOCITY_LIMIT ACCEL=5000 ACCEL_TO_DECEL=2500
M140 S60 ; set bed temperature
; printing object Voron_Design_Cube_v7 id:0 copy 0
SET_VELOCITY_LIMIT ACCEL=7000 ACCEL_TO_DECEL=3500
EXCLUDE_OBJECT_START NAME=Voron_Design_Cube_v7_id_0_copy_0
G1 Z.8 F21000
G1 X142.026 Y136.896 Z.8
G1 Z.4
G1 E.8 F1800
SET_VELOCITY_LIMIT ACCEL=5000 ACCEL_TO_DECEL=2500
;TYPE:Inner wall
;WIDTH:0.439999
G1 F9066.206
G1 X136.896 Y142.026 E.23472
G1 X119.104 Y142.026 E.57573
G1 X113.974 Y136.896 E.23472
G1 X113.974 Y119.104 E.57573
G1 X119.104 Y113.974 E.23472
G1 X136.896 Y113.974 E.57573
G1 X142.026 Y119.104 E.23472
G1 X142.026 Y136.856 E.57443
SET_VELOCITY_LIMIT ACCEL=7000 ACCEL_TO_DECEL=3500
G1 X142.423 Y137.061 F21000
SET_VELOCITY_LIMIT ACCEL=5000 ACCEL_TO_DECEL=2500
G1 F9066.206
G1 X137.061 Y142.423 E.24536
G1 X118.939 Y142.423 E.58637
G1 X113.577 Y137.061 E.24536
